; G-Code generated by Simplify3D(R) Version 4.0.1
; Aug 18, 2018 at 5:54:18 PM
; Settings Summary
;   processName,Process1
;   applyToModels,back_frame_left
;   profileName,Qidi Technology Qidi Tech I
;   profileVersion,2016-08-03 08:00:00
;   baseProfile,
;   printMaterial,PLA
;   printQuality,High
;   printExtruders,Left Extruder Only
;   extruderName,Right Extruder,Left Extruder
;   extruderToolheadNumber,0,1
;   extruderDiameter,0.4,0.4
;   extruderAutoWidth,0,0
;   extruderWidth,0.4,0.4
;   extrusionMultiplier,0.9,0.9
;   extruderUseRetract,1,1
;   extruderRetractionDistance,1,1
;   extruderExtraRestartDistance,0,0
;   extruderRetractionZLift,0,0
;   extruderRetractionSpeed,1200,1200
;   extruderUseCoasting,0,0
;   extruderCoastingDistance,0.2,0.2
;   extruderUseWipe,0,0
;   extruderWipeDistance,5,5
;   primaryExtruder,1
;   layerHeight,0.1
;   topSolidLayers,4
;   bottomSolidLayers,4
;   perimeterOutlines,2
;   printPerimetersInsideOut,1
;   startPointOption,2
;   startPointOriginX,0
;   startPointOriginY,0
;   sequentialIslands,0
;   spiralVaseMode,0
;   firstLayerHeightPercentage,90
;   firstLayerWidthPercentage,100
;   firstLayerUnderspeed,0.5
;   useRaft,0
;   raftExtruder,1
;   raftTopLayers,3
;   raftBaseLayers,2
;   raftOffset,3
;   raftSeparationDistance,0.14
;   raftTopInfill,100
;   aboveRaftSpeedMultiplier,0.3
;   useSkirt,1
;   skirtExtruder,1
;   skirtLayers,2
;   skirtOutlines,2
;   skirtOffset,4
;   usePrimePillar,0
;   primePillarExtruder,999
;   primePillarWidth,12
;   primePillarLocation,7
;   primePillarSpeedMultiplier,1
;   useOozeShield,0
;   oozeShieldExtruder,999
;   oozeShieldOffset,1
;   oozeShieldOutlines,1
;   oozeShieldSidewallShape,1
;   oozeShieldSidewallAngle,30
;   oozeShieldSpeedMultiplier,1
;   infillExtruder,1
;   internalInfillPattern,Rectilinear
;   externalInfillPattern,Rectilinear
;   infillPercentage,30
;   outlineOverlapPercentage,30
;   infillExtrusionWidthPercentage,100
;   minInfillLength,5
;   infillLayerInterval,1
;   internalInfillAngles,45,-45
;   overlapInternalInfillAngles,0
;   externalInfillAngles,45,-45
;   generateSupport,0
;   supportExtruder,1
;   supportInfillPercentage,40
;   supportExtraInflation,0
;   supportBaseLayers,0
;   denseSupportExtruder,1
;   denseSupportLayers,0
;   denseSupportInfillPercentage,70
;   supportLayerInterval,1
;   supportHorizontalPartOffset,0.3
;   supportUpperSeparationLayers,1
;   supportLowerSeparationLayers,1
;   supportType,0
;   supportGridSpacing,4
;   maxOverhangAngle,45
;   supportAngles,0
;   temperatureName,Right Extruder,Left Extruder,Heated Build Platform
;   temperatureNumber,0,1,0
;   temperatureSetpointCount,1,1,2
;   temperatureSetpointLayers,1,1,1,2
;   temperatureSetpointTemperatures,0,205,65,45
;   temperatureStabilizeAtStartup,0,0,0
;   temperatureHeatedBed,0,0,1
;   temperatureRelayBetweenLayers,0,0,0
;   temperatureRelayBetweenLoops,0,0,0
;   fanLayers,1,2
;   fanSpeeds,0,100
;   blipFanToFullPower,0
;   adjustSpeedForCooling,1
;   minSpeedLayerTime,15
;   minCoolingSpeedSlowdown,20
;   increaseFanForCooling,0
;   minFanLayerTime,45
;   maxCoolingFanSpeed,100
;   increaseFanForBridging,1
;   bridgingFanSpeed,100
;   use5D,1
;   relativeEdistances,1
;   allowEaxisZeroing,0
;   independentExtruderAxes,1
;   includeM10123,0
;   stickySupport,1
;   applyToolheadOffsets,0
;   gcodeXoffset,0
;   gcodeYoffset,0
;   gcodeZoffset,0
;   overrideMachineDefinition,1
;   machineTypeOverride,0
;   strokeXoverride,225
;   strokeYoverride,145
;   strokeZoverride,150
;   originOffsetXoverride,112.5
;   originOffsetYoverride,72.5
;   originOffsetZoverride,0
;   homeXdirOverride,1
;   homeYdirOverride,1
;   homeZdirOverride,-1
;   flipXoverride,1
;   flipYoverride,-1
;   flipZoverride,1
;   toolheadOffsets,0,0|34,0|0,0|0,0|0,0|0,0
;   overrideFirmwareConfiguration,1
;   firmwareTypeOverride,MakerBot/Sailfish Firmware
;   GPXconfigOverride,r1d
;   baudRateOverride,115200
;   overridePrinterModels,1
;   printerModelsOverride,MakerBot_Replicator1.stl
;   startingGcode,M73 P0 ; Enable build progress,G162 X Y F3000 ; Home XY maximum,G161 Z F1200 ; Home Z minimum,G92 X0 Y0 Z-5 A0 B0 ; Set Z to -5,G1 Z0 ; Move Z to 0,G161 Z F100 ; Home Z slowly,M132 X Y Z ; Recall home offsets,M135 T0 ; Load right extruder offsets,G1 X-110 Y-70 Z30 F9000 ; Move to wait position off table,G130 X20 Y20 Z20 A20 B20 ; Lower stepper Vrefs while heating,M126 S[fan_speed_pwm] ; Set fan speed,M140 S[bed0_temperature] T0 ; Heat buildplate ,M134 T0 ; Stabilize bed temperature,M104 S[extruder1_temperature] T1 ; Heat left extruder,M133 T1 ; Stabilize left extruder temperature,G130 X127 Y127 Z40 A127 B127 ; Default stepper Vrefs,G92 A0 B0 ; Zero extruders,M135 T1 ; Load left extruder offsets,G1 X-100 Y-78 F9000 ; Move to front left corner of bed,G1 Z0.3 F6000 ; Move down to purge,G1 X90 Y-78 E24 F2000 ; Extrude a line of filament across the front edge of the bed,G1 X100 Y-78 F180 ; Wait for ooze,G1 X110 Y-78 F5000 ; Fast wipe,G1 Z1 F100 ; Lift,G92 A0 B0 ; Zero extruders,M73 P1 ; @body (notify GPX body has started)
;   layerChangeGcode,
;   retractionGcode,
;   toolChangeGcode,
;   endingGcode,M73 P100 ; end build progress,G1 Z150 F1000 ; send Z axis to bottom of machine,M140 S0 T0 ; cool down HBP,M104 S0 T0 ; cool down right extruder,M104 S0 T1 ; cool down left extruder,M127 ; stop blower fan,G162 X Y F3000 ; home XY maximum,M18 ; disable stepper,M72 P1 ; play Ta-Da song
;   exportFileFormat,x3g
;   celebration,0
;   celebrationSong,Random Song
;   postProcessing,
;   defaultSpeed,3600
;   outlineUnderspeed,0.5
;   solidInfillUnderspeed,0.8
;   supportUnderspeed,0.8
;   rapidXYspeed,4200
;   rapidZspeed,1200
;   minBridgingArea,50
;   bridgingExtraInflation,0
;   bridgingExtrusionMultiplier,1
;   bridgingSpeedMultiplier,0.8
;   useFixedBridgingAngle,0
;   fixedBridgingAngle,0
;   applyBridgingToPerimeters,0
;   filamentDiameters,1.75|1.75|1.75|1.75|1.75|1.75
;   filamentPricesPerKg,46|46|46|46|46|46
;   filamentDensities,1.25|1.25|1.25|1.25|1.25|1.25
;   useMinPrintHeight,0
;   minPrintHeight,0
;   useMaxPrintHeight,0
;   maxPrintHeight,0
;   useDiaphragm,0
;   diaphragmLayerInterval,20
;   robustSlicing,1
;   mergeAllIntoSolid,0
;   onlyRetractWhenCrossingOutline,1
;   retractBetweenLayers,1
;   useRetractionMinTravel,0
;   retractionMinTravel,3
;   retractWhileWiping,0
;   onlyWipeOutlines,1
;   avoidCrossingOutline,0
;   maxMovementDetourFactor,3
;   toolChangeRetractionDistance,12
;   toolChangeExtraRestartDistance,-0.5
;   toolChangeRetractionSpeed,600
;   externalThinWallType,0
;   internalThinWallType,2
;   thinWallAllowedOverlapPercentage,10
;   singleExtrusionMinLength,1
;   singleExtrusionMinPrintingWidthPercentage,50
;   singleExtrusionMaxPrintingWidthPercentage,200
;   singleExtrusionEndpointExtension,0.2
;   horizontalSizeCompensation,0
G90
M83
M73 P0 ; Enable build progress
G162 X Y F3000 ; Home XY maximum
G161 Z F1200 ; Home Z minimum
G92 X0 Y0 Z-5 A0 B0 ; Set Z to -5
G1 Z0 ; Move Z to 0
G161 Z F100 ; Home Z slowly
M132 X Y Z ; Recall home offsets
M135 T0 ; Load right extruder offsets
G1 X-110 Y-70 Z30 F9000 ; Move to wait position off table
G130 X20 Y20 Z20 A20 B20 ; Lower stepper Vrefs while heating
M127 ; Set fan speed
M140 S65 T0 ; Heat buildplate 
M134 T0 ; Stabilize bed temperature
M104 S205 T1 ; Heat left extruder
M133 T1 ; Stabilize left extruder temperature
G130 X127 Y127 Z40 A127 B127 ; Default stepper Vrefs
G92 A0 B0 ; Zero extruders
M135 T1 ; Load left extruder offsets
G1 X-100 Y-78 F9000 ; Move to front left corner of bed
G1 Z0.3 F6000 ; Move down to purge
G1 X90 Y-78 E24 F2000 ; Extrude a line of filament across the front edge of the bed
G1 X100 Y-78 F180 ; Wait for ooze
G1 X110 Y-78 F5000 ; Fast wipe
G1 Z1 F100 ; Lift
G92 A0 B0 ; Zero extruders
M73 P1 ; @body (notify GPX body has started)
G1 E-1.0000 F1200
G1 Z0.090 F1200
; process Process1
; layer 1, Z = 0.090
M135 T1
; tool H0.100 W0.400
; skirt
G1 X-47.482 Y36.125 F4200
G1 E1.0000 F360
G1 X60.317 Y36.372 E1.6134 F1800
G1 X60.568 Y-72.804 E1.6340
G1 X60.660 Y-73.024 E0.0036
G1 X63.178 Y-75.530 E0.0532
G1 X63.398 Y-75.621 E0.0036
G1 X84.951 Y-75.572 E0.3226
G1 X85.171 Y-75.480 E0.0036
G1 X87.677 Y-72.962 E0.0532
G1 X87.768 Y-72.741 E0.0036
G1 X87.431 Y73.811 E2.1935
G1 X87.340 Y74.031 E0.0036
G1 X84.822 Y76.537 E0.0532
G1 X84.601 Y76.628 E0.0036
G1 X-84.951 Y76.239 E2.5377
G1 X-85.171 Y76.147 E0.0036
G1 X-87.677 Y73.629 E0.0532
G1 X-87.768 Y73.408 E0.0036
G1 X-87.431 Y-73.144 E2.1935
G1 X-87.340 Y-73.364 E0.0036
G1 X-84.822 Y-75.870 E0.0532
G1 X-84.601 Y-75.961 E0.0036
G1 X-50.049 Y-75.882 E0.5171
G1 X-49.829 Y-75.790 E0.0036
G1 X-47.322 Y-73.272 E0.0532
G1 X-47.232 Y-73.051 E0.0036
G1 X-47.482 Y36.124 E1.6340
G1 X-47.883 Y36.524 F4200
G1 X60.716 Y36.773 E1.6254 F1800
G1 X60.968 Y-72.723 E1.6388
G1 X60.999 Y-72.797 E0.0012
G1 X63.403 Y-75.191 E0.0508
G1 X63.477 Y-75.221 E0.0012
G1 X84.870 Y-75.172 E0.3202
G1 X84.944 Y-75.141 E0.0012
G1 X87.338 Y-72.736 E0.0508
G1 X87.368 Y-72.663 E0.0012
G1 X87.032 Y73.730 E2.1911
G1 X87.001 Y73.804 E0.0012
G1 X84.596 Y76.197 E0.0508
G1 X84.523 Y76.228 E0.0012
G1 X-84.870 Y75.839 E2.5353
G1 X-84.944 Y75.808 E0.0012
G1 X-87.338 Y73.403 E0.0508
G1 X-87.368 Y73.330 E0.0012
G1 X-87.032 Y-73.063 E2.1911
G1 X-87.001 Y-73.137 E0.0012
G1 X-84.596 Y-75.531 E0.0508
G1 X-84.523 Y-75.561 E0.0012
G1 X-50.129 Y-75.482 E0.5148
G1 X-50.056 Y-75.451 E0.0012
G1 X-47.662 Y-73.046 E0.0508
G1 X-47.632 Y-72.973 E0.0012
G1 X-47.883 Y36.524 E1.6388
G1 E-1.0000 F1200
; inner perimeter
G1 X-52.694 Y41.313 F4200
G1 E1.0000 F1200
G1 X65.505 Y41.584 E1.7691 F1350
G1 X65.763 Y-70.416 E1.6763
G1 X82.563 Y-70.377 E0.2514
G1 X82.237 Y71.422 E2.1223
G1 X-82.563 Y71.044 E2.4666
G1 X-82.237 Y-70.756 E2.1223
G1 X-52.437 Y-70.687 E0.4460
G1 X-52.694 Y41.313 E1.6763
; outer perimeter
G1 X-52.293 Y40.913 F4200
G1 X65.106 Y41.183 E1.7571 F900
G1 X65.364 Y-70.817 E1.6763
G1 X82.963 Y-70.776 E0.2634
G1 X82.636 Y71.823 E2.1343
G1 X-82.963 Y71.443 E2.4785
G1 X-82.636 Y-71.156 E2.1343
G1 X-52.036 Y-71.086 E0.4580
G1 X-52.293 Y40.913 E1.6763
; inner perimeter
G1 X-75.017 Y64.968 F4200
G1 X-77.145 Y63.415 E0.0394 F1350
G1 X-79.280 Y64.958 E0.0394
G1 X-78.472 Y67.467 E0.0395
G1 X-75.837 Y67.473 E0.0394
G1 X-75.017 Y64.968 E0.0395
; outer perimeter
G1 X-75.487 Y65.120 F4200
G1 X-77.146 Y63.909 E0.0307 F900
G1 X-78.811 Y65.112 E0.0307
G1 X-78.180 Y67.068 E0.0308
G1 X-76.126 Y67.073 E0.0307
G1 X-75.487 Y65.120 E0.0308
; inner perimeter
G1 X74.719 Y65.312 F4200
G1 X75.528 Y67.821 E0.0395 F1350
G1 X78.163 Y67.827 E0.0394
G1 X78.983 Y65.322 E0.0395
G1 X76.854 Y63.769 E0.0394
G1 X74.719 Y65.312 E0.0394
; outer perimeter
G1 X75.189 Y65.466 F4200
G1 X75.819 Y67.422 E0.0308 F900
G1 X77.873 Y67.426 E0.0307
G1 X78.512 Y65.473 E0.0308
G1 X76.853 Y64.263 E0.0307
G1 X75.189 Y65.466 E0.0307
; solid layer
G1 X75.688 Y68.101 F4200
G1 X78.721 Y71.134 E0.0642 F1440
G1 X79.288 Y71.136 E0.0085
G1 X76.255 Y68.103 E0.0642
G1 X76.822 Y68.104 E0.0085
G1 X79.855 Y71.137 E0.0642
G1 X80.421 Y71.138 E0.0085
G1 X77.389 Y68.105 E0.0642
G1 X77.956 Y68.107 E0.0085
G1 X80.988 Y71.140 E0.0642
G1 X81.555 Y71.141 E0.0085
G1 X78.404 Y67.990 E0.0667
G1 X78.544 Y67.564 E0.0067
G1 X81.958 Y70.978 E0.0723
G1 X81.959 Y70.413 E0.0084
G1 X78.683 Y67.137 E0.0693
G1 X78.823 Y66.711 E0.0067
G1 X81.961 Y69.849 E0.0664
G1 X81.962 Y69.285 E0.0084
G1 X78.962 Y66.285 E0.0635
G1 X79.102 Y65.859 E0.0067
G1 X81.963 Y68.720 E0.0606
G1 X81.964 Y68.156 E0.0084
G1 X79.241 Y65.432 E0.0576
G1 X81.737 Y-70.099 F4200
G1 X82.281 Y-69.555 E0.0115 F1440
G1 X82.279 Y-68.991 E0.0084
G1 X81.170 Y-70.100 E0.0235
G1 X80.603 Y-70.102 E0.0085
G1 X82.278 Y-68.426 E0.0355
G1 X82.277 Y-67.862 E0.0084
G1 X80.036 Y-70.103 E0.0474
G1 X79.469 Y-70.104 E0.0085
G1 X82.275 Y-67.298 E0.0594
G1 X82.274 Y-66.733 E0.0084
G1 X78.902 Y-70.106 E0.0714
G1 X78.335 Y-70.107 E0.0085
G1 X82.273 Y-66.169 E0.0834
G1 X82.272 Y-65.605 E0.0084
G1 X77.768 Y-70.108 E0.0953
G1 X77.201 Y-70.109 E0.0085
G1 X82.270 Y-65.040 E0.1073
G1 X82.269 Y-64.476 E0.0084
G1 X76.634 Y-70.111 E0.1193
G1 X76.067 Y-70.112 E0.0085
G1 X82.268 Y-63.911 E0.1312
G1 X82.266 Y-63.347 E0.0084
G1 X75.500 Y-70.113 E0.1432
G1 X74.933 Y-70.115 E0.0085
G1 X82.265 Y-62.783 E0.1552
G1 X82.264 Y-62.218 E0.0084
G1 X74.366 Y-70.116 E0.1672
G1 X73.799 Y-70.117 E0.0085
G1 X82.263 Y-61.654 E0.1791
G1 X82.261 Y-61.089 E0.0084
G1 X73.232 Y-70.119 E0.1911
G1 X72.665 Y-70.120 E0.0085
G1 X82.260 Y-60.525 E0.2031
G1 X82.259 Y-59.961 E0.0084
G1 X72.098 Y-70.121 E0.2151
G1 X71.531 Y-70.122 E0.0085
G1 X82.257 Y-59.396 E0.2270
G1 X82.256 Y-58.832 E0.0084
G1 X70.964 Y-70.124 E0.2390
G1 X70.397 Y-70.125 E0.0085
G1 X82.255 Y-58.267 E0.2510
G1 X82.253 Y-57.703 E0.0084
G1 X69.830 Y-70.126 E0.2630
G1 X69.263 Y-70.128 E0.0085
G1 X82.252 Y-57.139 E0.2749
G1 X82.251 Y-56.574 E0.0084
G1 X68.696 Y-70.129 E0.2869
G1 X68.129 Y-70.130 E0.0085
G1 X82.250 Y-56.010 E0.2989
G1 X82.248 Y-55.446 E0.0084
G1 X67.562 Y-70.132 E0.3109
G1 X66.995 Y-70.133 E0.0085
G1 X82.247 Y-54.881 E0.3228
G1 X82.246 Y-54.317 E0.0084
G1 X66.428 Y-70.134 E0.3348
G1 X66.042 Y-70.135 E0.0058
G1 X66.042 Y-69.955 E0.0027
G1 X82.244 Y-53.752 E0.3430
G1 X82.243 Y-53.188 E0.0084
G1 X66.040 Y-69.391 E0.3430
G1 X66.039 Y-68.826 E0.0084
G1 X82.242 Y-52.624 E0.3430
G1 X82.240 Y-52.059 E0.0084
G1 X66.038 Y-68.262 E0.3430
G1 X66.036 Y-67.698 E0.0084
G1 X82.239 Y-51.495 E0.3430
G1 X82.238 Y-50.930 E0.0084
G1 X66.035 Y-67.133 E0.3430
G1 X66.034 Y-66.569 E0.0084
G1 X82.237 Y-50.366 E0.3430
G1 X82.235 Y-49.802 E0.0084
G1 X66.032 Y-66.004 E0.3430
G1 X66.031 Y-65.440 E0.0084
G1 X82.234 Y-49.237 E0.3430
G1 X82.233 Y-48.673 E0.0084
G1 X66.030 Y-64.876 E0.3430
G1 X66.029 Y-64.311 E0.0084
G1 X82.231 Y-48.108 E0.3430
G1 X82.230 Y-47.544 E0.0084
G1 X66.027 Y-63.747 E0.3430
G1 X66.026 Y-63.183 E0.0084
G1 X82.229 Y-46.980 E0.3430
G1 X82.228 Y-46.415 E0.0084
G1 X66.025 Y-62.618 E0.3430
G1 X66.023 Y-62.054 E0.0084
G1 X82.226 Y-45.851 E0.3430
G1 X82.225 Y-45.287 E0.0084
G1 X66.022 Y-61.489 E0.3430
G1 X66.021 Y-60.925 E0.0084
G1 X82.224 Y-44.722 E0.3430
G1 X82.222 Y-44.158 E0.0084
G1 X66.020 Y-60.361 E0.3430
G1 X66.018 Y-59.796 E0.0084
G1 X82.221 Y-43.593 E0.3430
G1 X82.220 Y-43.029 E0.0084
G1 X66.017 Y-59.232 E0.3430
G1 X66.016 Y-58.667 E0.0084
G1 X82.218 Y-42.465 E0.3430
G1 X82.217 Y-41.900 E0.0084
G1 X66.014 Y-58.103 E0.3430
G1 X66.013 Y-57.539 E0.0084
G1 X82.216 Y-41.336 E0.3430
G1 X82.215 Y-40.771 E0.0084
G1 X66.012 Y-56.974 E0.3430
G1 X66.010 Y-56.410 E0.0084
G1 X82.213 Y-40.207 E0.3430
G1 X82.212 Y-39.643 E0.0084
G1 X66.009 Y-55.845 E0.3430
G1 X66.008 Y-55.281 E0.0084
G1 X82.211 Y-39.078 E0.3430
G1 X82.209 Y-38.514 E0.0084
G1 X66.007 Y-54.717 E0.3430
G1 X66.005 Y-54.152 E0.0084
G1 X82.208 Y-37.949 E0.3430
G1 X82.207 Y-37.385 E0.0084
G1 X66.004 Y-53.588 E0.3430
G1 X66.003 Y-53.023 E0.0084
G1 X82.206 Y-36.821 E0.3430
G1 X82.204 Y-36.256 E0.0084
G1 X66.001 Y-52.459 E0.3430
G1 X66.000 Y-51.895 E0.0084
G1 X82.203 Y-35.692 E0.3430
G1 X82.202 Y-35.128 E0.0084
G1 X65.999 Y-51.330 E0.3430
G1 X65.997 Y-50.766 E0.0084
G1 X82.200 Y-34.563 E0.3430
G1 X82.199 Y-33.999 E0.0084
G1 X65.996 Y-50.202 E0.3430
G1 X65.995 Y-49.637 E0.0084
G1 X82.198 Y-33.434 E0.3430
G1 X82.196 Y-32.870 E0.0084
G1 X65.994 Y-49.073 E0.3430
G1 X65.992 Y-48.508 E0.0084
G1 X82.195 Y-32.306 E0.3430
G1 X82.194 Y-31.741 E0.0084
G1 X65.991 Y-47.944 E0.3430
G1 X65.990 Y-47.380 E0.0084
G1 X82.193 Y-31.177 E0.3430
G1 X82.191 Y-30.612 E0.0084
G1 X65.988 Y-46.815 E0.3430
G1 X65.987 Y-46.251 E0.0084
G1 X82.190 Y-30.048 E0.3430
G1 X82.189 Y-29.484 E0.0084
G1 X65.986 Y-45.686 E0.3430
G1 X65.985 Y-45.122 E0.0084
G1 X82.187 Y-28.919 E0.3430
G1 X82.186 Y-28.355 E0.0084
G1 X65.983 Y-44.558 E0.3430
G1 X65.982 Y-43.993 E0.0084
G1 X82.185 Y-27.790 E0.3430
G1 X82.183 Y-27.226 E0.0084
G1 X65.981 Y-43.429 E0.3430
G1 X65.979 Y-42.864 E0.0084
G1 X82.182 Y-26.662 E0.3430
G1 X82.181 Y-26.097 E0.0084
G1 X65.978 Y-42.300 E0.3430
G1 X65.977 Y-41.736 E0.0084
G1 X82.180 Y-25.533 E0.3430
G1 X82.178 Y-24.968 E0.0084
G1 X65.975 Y-41.171 E0.3430
