; G-Code generated by Simplify3D(R) Version 4.0.1
; Aug 18, 2018 at 9:00:36 PM
; Settings Summary
;   processName,Process1
;   applyToModels,back_frame_right
;   profileName,Qidi Technology Qidi Tech I (modified)
;   profileVersion,2016-08-03 08:00:00
;   baseProfile,
;   printMaterial,PLA
;   printQuality,High
;   printExtruders,Left Extruder Only
;   extruderName,Right Extruder,Left Extruder
;   extruderToolheadNumber,0,1
;   extruderDiameter,0.4,0.4
;   extruderAutoWidth,0,0
;   extruderWidth,0.4,0.4
;   extrusionMultiplier,0.9,0.9
;   extruderUseRetract,1,1
;   extruderRetractionDistance,1,1
;   extruderExtraRestartDistance,0,0
;   extruderRetractionZLift,0,0
;   extruderRetractionSpeed,1200,1200
;   extruderUseCoasting,0,0
;   extruderCoastingDistance,0.2,0.2
;   extruderUseWipe,0,0
;   extruderWipeDistance,5,5
;   primaryExtruder,1
;   layerHeight,0.1
;   topSolidLayers,4
;   bottomSolidLayers,4
;   perimeterOutlines,2
;   printPerimetersInsideOut,1
;   startPointOption,2
;   startPointOriginX,0
;   startPointOriginY,0
;   sequentialIslands,0
;   spiralVaseMode,0
;   firstLayerHeightPercentage,90
;   firstLayerWidthPercentage,100
;   firstLayerUnderspeed,0.5
;   useRaft,0
;   raftExtruder,1
;   raftTopLayers,3
;   raftBaseLayers,2
;   raftOffset,3
;   raftSeparationDistance,0.14
;   raftTopInfill,100
;   aboveRaftSpeedMultiplier,0.3
;   useSkirt,1
;   skirtExtruder,1
;   skirtLayers,2
;   skirtOutlines,2
;   skirtOffset,4
;   usePrimePillar,0
;   primePillarExtruder,999
;   primePillarWidth,12
;   primePillarLocation,7
;   primePillarSpeedMultiplier,1
;   useOozeShield,0
;   oozeShieldExtruder,999
;   oozeShieldOffset,1
;   oozeShieldOutlines,1
;   oozeShieldSidewallShape,1
;   oozeShieldSidewallAngle,30
;   oozeShieldSpeedMultiplier,1
;   infillExtruder,1
;   internalInfillPattern,Rectilinear
;   externalInfillPattern,Rectilinear
;   infillPercentage,30
;   outlineOverlapPercentage,30
;   infillExtrusionWidthPercentage,100
;   minInfillLength,5
;   infillLayerInterval,1
;   internalInfillAngles,45,-45
;   overlapInternalInfillAngles,0
;   externalInfillAngles,45,-45
;   generateSupport,1
;   supportExtruder,1
;   supportInfillPercentage,40
;   supportExtraInflation,0
;   supportBaseLayers,0
;   denseSupportExtruder,1
;   denseSupportLayers,0
;   denseSupportInfillPercentage,70
;   supportLayerInterval,1
;   supportHorizontalPartOffset,0.3
;   supportUpperSeparationLayers,1
;   supportLowerSeparationLayers,1
;   supportType,0
;   supportGridSpacing,4
;   maxOverhangAngle,45
;   supportAngles,0
;   temperatureName,Right Extruder,Left Extruder,Heated Build Platform
;   temperatureNumber,0,1,0
;   temperatureSetpointCount,1,1,2
;   temperatureSetpointLayers,1,1,1,2
;   temperatureSetpointTemperatures,0,205,65,45
;   temperatureStabilizeAtStartup,0,0,0
;   temperatureHeatedBed,0,0,1
;   temperatureRelayBetweenLayers,0,0,0
;   temperatureRelayBetweenLoops,0,0,0
;   fanLayers,1,2
;   fanSpeeds,0,100
;   blipFanToFullPower,0
;   adjustSpeedForCooling,1
;   minSpeedLayerTime,15
;   minCoolingSpeedSlowdown,20
;   increaseFanForCooling,0
;   minFanLayerTime,45
;   maxCoolingFanSpeed,100
;   increaseFanForBridging,1
;   bridgingFanSpeed,100
;   use5D,1
;   relativeEdistances,1
;   allowEaxisZeroing,0
;   independentExtruderAxes,1
;   includeM10123,0
;   stickySupport,1
;   applyToolheadOffsets,0
;   gcodeXoffset,0
;   gcodeYoffset,0
;   gcodeZoffset,0
;   overrideMachineDefinition,1
;   machineTypeOverride,0
;   strokeXoverride,225
;   strokeYoverride,145
;   strokeZoverride,150
;   originOffsetXoverride,112.5
;   originOffsetYoverride,72.5
;   originOffsetZoverride,0
;   homeXdirOverride,1
;   homeYdirOverride,1
;   homeZdirOverride,-1
;   flipXoverride,1
;   flipYoverride,-1
;   flipZoverride,1
;   toolheadOffsets,0,0|34,0|0,0|0,0|0,0|0,0
;   overrideFirmwareConfiguration,1
;   firmwareTypeOverride,MakerBot/Sailfish Firmware
;   GPXconfigOverride,r1d
;   baudRateOverride,115200
;   overridePrinterModels,1
;   printerModelsOverride,MakerBot_Replicator1.stl
;   startingGcode,M73 P0 ; Enable build progress,G162 X Y F3000 ; Home XY maximum,G161 Z F1200 ; Home Z minimum,G92 X0 Y0 Z-5 A0 B0 ; Set Z to -5,G1 Z0 ; Move Z to 0,G161 Z F100 ; Home Z slowly,M132 X Y Z ; Recall home offsets,M135 T0 ; Load right extruder offsets,G1 X-110 Y-70 Z30 F9000 ; Move to wait position off table,G130 X20 Y20 Z20 A20 B20 ; Lower stepper Vrefs while heating,M126 S[fan_speed_pwm] ; Set fan speed,M140 S[bed0_temperature] T0 ; Heat buildplate ,M134 T0 ; Stabilize bed temperature,M104 S[extruder1_temperature] T1 ; Heat left extruder,M133 T1 ; Stabilize left extruder temperature,G130 X127 Y127 Z40 A127 B127 ; Default stepper Vrefs,M73 P1 ; @body (notify GPX body has started)
;   layerChangeGcode,
;   retractionGcode,
;   toolChangeGcode,
;   endingGcode,M73 P100 ; end build progress,G1 Z150 F1000 ; send Z axis to bottom of machine,M140 S0 T0 ; cool down HBP,M104 S0 T0 ; cool down right extruder,M104 S0 T1 ; cool down left extruder,M127 ; stop blower fan,G162 X Y F3000 ; home XY maximum,M18 ; disable stepper,M72 P1 ; play Ta-Da song
;   exportFileFormat,x3g
;   celebration,0
;   celebrationSong,Random Song
;   postProcessing,
;   defaultSpeed,3600
;   outlineUnderspeed,0.5
;   solidInfillUnderspeed,0.8
;   supportUnderspeed,0.8
;   rapidXYspeed,4200
;   rapidZspeed,1200
;   minBridgingArea,50
;   bridgingExtraInflation,0
;   bridgingExtrusionMultiplier,1
;   bridgingSpeedMultiplier,0.8
;   useFixedBridgingAngle,0
;   fixedBridgingAngle,0
;   applyBridgingToPerimeters,0
;   filamentDiameters,1.75|1.75|1.75|1.75|1.75|1.75
;   filamentPricesPerKg,46|46|46|46|46|46
;   filamentDensities,1.25|1.25|1.25|1.25|1.25|1.25
;   useMinPrintHeight,0
;   minPrintHeight,0
;   useMaxPrintHeight,0
;   maxPrintHeight,0
;   useDiaphragm,0
;   diaphragmLayerInterval,20
;   robustSlicing,1
;   mergeAllIntoSolid,0
;   onlyRetractWhenCrossingOutline,1
;   retractBetweenLayers,1
;   useRetractionMinTravel,0
;   retractionMinTravel,3
;   retractWhileWiping,0
;   onlyWipeOutlines,1
;   avoidCrossingOutline,0
;   maxMovementDetourFactor,3
;   toolChangeRetractionDistance,12
;   toolChangeExtraRestartDistance,-0.5
;   toolChangeRetractionSpeed,600
;   externalThinWallType,0
;   internalThinWallType,2
;   thinWallAllowedOverlapPercentage,10
;   singleExtrusionMinLength,1
;   singleExtrusionMinPrintingWidthPercentage,50
;   singleExtrusionMaxPrintingWidthPercentage,200
;   singleExtrusionEndpointExtension,0.2
;   horizontalSizeCompensation,0
G90
M83
M73 P0 ; Enable build progress
G162 X Y F3000 ; Home XY maximum
G161 Z F1200 ; Home Z minimum
G92 X0 Y0 Z-5 A0 B0 ; Set Z to -5
G1 Z0 ; Move Z to 0
G161 Z F100 ; Home Z slowly
M132 X Y Z ; Recall home offsets
M135 T0 ; Load right extruder offsets
G1 X-110 Y-70 Z30 F9000 ; Move to wait position off table
G130 X20 Y20 Z20 A20 B20 ; Lower stepper Vrefs while heating
M127 ; Set fan speed
M140 S65 T0 ; Heat buildplate 
M134 T0 ; Stabilize bed temperature
M104 S205 T1 ; Heat left extruder
M133 T1 ; Stabilize left extruder temperature
G130 X127 Y127 Z40 A127 B127 ; Default stepper Vrefs
M73 P1 ; @body (notify GPX body has started)
G1 E-1.0000 F1200
G1 Z0.090 F1200
; process Process1
; layer 1, Z = 0.090
M135 T1
; tool H0.100 W0.400
; skirt
G1 X45.983 Y32.995 F4200
G1 E1.0000 F360
G1 X46.280 Y-66.180 E1.4844 F1800
G1 X46.372 Y-66.401 E0.0036
G1 X48.892 Y-68.905 E0.0532
G1 X49.112 Y-68.996 E0.0036
G1 X83.665 Y-68.892 E0.5171
G1 X83.885 Y-68.800 E0.0036
G1 X86.389 Y-66.281 E0.0532
G1 X86.480 Y-66.060 E0.0036
G1 X86.071 Y70.492 E2.0438
G1 X85.979 Y70.712 E0.0036
G1 X83.459 Y73.216 E0.0532
G1 X83.238 Y73.307 E0.0036
G1 X-86.313 Y72.799 E2.5377
G1 X-86.534 Y72.707 E0.0036
G1 X-89.038 Y70.187 E0.0532
G1 X-89.129 Y69.966 E0.0036
G1 X-88.719 Y-66.585 E2.0438
G1 X-88.627 Y-66.806 E0.0036
G1 X-86.108 Y-69.310 E0.0532
G1 X-85.887 Y-69.401 E0.0036
G1 X-64.335 Y-69.336 E0.3226
G1 X-64.114 Y-69.244 E0.0036
G1 X-61.610 Y-66.725 E0.0532
G1 X-61.519 Y-66.504 E0.0036
G1 X-61.817 Y32.672 E1.4844
G1 X45.983 Y32.995 E1.6134
G1 X46.382 Y33.396 F4200
G1 X46.680 Y-66.100 E1.4892 F1800
G1 X46.711 Y-66.173 E0.0012
G1 X49.117 Y-68.565 E0.0508
G1 X49.191 Y-68.596 E0.0012
G1 X83.584 Y-68.492 E0.5148
G1 X83.657 Y-68.462 E0.0012
G1 X86.050 Y-66.055 E0.0508
G1 X86.080 Y-65.982 E0.0012
G1 X85.671 Y70.411 E2.0414
G1 X85.640 Y70.484 E0.0012
G1 X83.234 Y72.877 E0.0508
G1 X83.160 Y72.907 E0.0012
G1 X-86.233 Y72.399 E2.5353
G1 X-86.306 Y72.368 E0.0012
G1 X-88.698 Y69.962 E0.0508
G1 X-88.728 Y69.888 E0.0012
G1 X-88.319 Y-66.505 E2.0414
G1 X-88.289 Y-66.578 E0.0012
G1 X-85.882 Y-68.970 E0.0508
G1 X-85.809 Y-69.000 E0.0012
G1 X-64.415 Y-68.936 E0.3202
G1 X-64.342 Y-68.906 E0.0012
G1 X-61.950 Y-66.499 E0.0508
G1 X-61.920 Y-66.425 E0.0012
G1 X-62.218 Y33.071 E1.4892
G1 X46.382 Y33.396 E1.6254
G1 E-1.0000 F1200
; inner perimeter
G1 X51.167 Y38.211 F4200
G1 E1.0000 F1200
G1 X51.473 Y-63.789 E1.5266 F1350
G1 X81.273 Y-63.699 E0.4460
G1 X80.878 Y68.100 E1.9727
G1 X-83.922 Y67.606 E2.4666
G1 X-83.526 Y-64.194 E1.9727
G1 X-66.726 Y-64.143 E0.2514
G1 X-67.032 Y37.856 E1.5266
G1 X51.167 Y38.211 E1.7691
; outer perimeter
G1 X50.768 Y37.810 F4200
G1 X51.074 Y-64.190 E1.5266 F900
G1 X81.674 Y-64.098 E0.4580
G1 X81.276 Y68.501 E1.9846
G1 X-84.323 Y68.005 E2.4785
G1 X-83.925 Y-64.595 E1.9846
G1 X-66.325 Y-64.542 E0.2634
G1 X-66.631 Y37.458 E1.5266
G1 X50.768 Y37.810 E1.7571
; inner perimeter
G1 X74.182 Y60.866 F4200
G1 X73.360 Y63.371 E0.0395 F1350
G1 X75.487 Y64.925 E0.0394
G1 X77.624 Y63.384 E0.0394
G1 X76.817 Y60.874 E0.0395
G1 X74.182 Y60.866 E0.0394
; outer perimeter
G1 X74.471 Y61.267 F4200
G1 X73.831 Y63.219 E0.0308 F900
G1 X75.489 Y64.431 E0.0307
G1 X77.154 Y63.229 E0.0307
G1 X76.525 Y61.273 E0.0308
G1 X74.471 Y61.267 E0.0307
; inner perimeter
G1 X-76.376 Y62.922 F4200
G1 X-77.182 Y60.412 E0.0395 F1350
G1 X-79.818 Y60.404 E0.0394
G1 X-80.639 Y62.909 E0.0395
G1 X-78.512 Y64.464 E0.0394
G1 X-76.376 Y62.922 E0.0394
; outer perimeter
G1 X-76.845 Y62.768 F4200
G1 X-77.474 Y60.811 E0.0308 F900
G1 X-79.528 Y60.805 E0.0307
G1 X-80.169 Y62.758 E0.0308
G1 X-78.511 Y63.969 E0.0307
G1 X-76.845 Y62.768 E0.0307
; solid layer
G1 X-76.745 Y60.857 F4200
G1 X-70.235 Y67.367 E0.1378 F1440
G1 X-70.802 Y67.365 E0.0085
G1 X-76.477 Y61.690 E0.1201
G1 X-76.209 Y62.524 E0.0131
G1 X-71.370 Y67.364 E0.1024
G1 X-71.937 Y67.362 E0.0085
G1 X-76.176 Y63.123 E0.0897
G1 X-76.504 Y63.360 E0.0061
G1 X-72.504 Y67.360 E0.0847
G1 X-73.072 Y67.358 E0.0085
G1 X-76.833 Y63.597 E0.0796
G1 X-77.162 Y63.834 E0.0061
G1 X-73.639 Y67.357 E0.0746
G1 X-74.207 Y67.355 E0.0085
G1 X-77.490 Y64.071 E0.0695
G1 X-77.819 Y64.309 E0.0061
G1 X-74.774 Y67.353 E0.0644
G1 X-75.341 Y67.352 E0.0085
G1 X-78.147 Y64.546 E0.0594
G1 X-78.476 Y64.783 E0.0061
G1 X-75.909 Y67.350 E0.0543
G1 X-76.476 Y67.348 E0.0085
G1 X-80.376 Y63.448 E0.0825
G1 X-83.640 Y66.973 F4200
G1 X-83.285 Y67.328 E0.0075 F1440
G1 X-82.717 Y67.329 E0.0085
G1 X-83.638 Y66.409 E0.0195
G1 X-83.636 Y65.845 E0.0084
G1 X-82.150 Y67.331 E0.0315
G1 X-81.583 Y67.333 E0.0085
G1 X-83.635 Y65.281 E0.0434
G1 X-83.633 Y64.717 E0.0084
G1 X-81.015 Y67.335 E0.0554
G1 X-80.448 Y67.336 E0.0085
G1 X-83.631 Y64.153 E0.0674
G1 X-83.630 Y63.589 E0.0084
G1 X-79.880 Y67.338 E0.0794
G1 X-79.313 Y67.340 E0.0085
G1 X-83.628 Y63.025 E0.0913
G1 X-83.626 Y62.461 E0.0084
G1 X-78.746 Y67.341 E0.1033
G1 X-78.178 Y67.343 E0.0085
G1 X-83.624 Y61.897 E0.1153
G1 X-83.623 Y61.333 E0.0084
G1 X-77.611 Y67.345 E0.1272
G1 X-77.044 Y67.346 E0.0085
G1 X-83.621 Y60.769 E0.1392
G1 X-83.619 Y60.205 E0.0084
G1 X-80.929 Y62.895 E0.0569
G1 X-80.790 Y62.469 E0.0067
G1 X-83.618 Y59.641 E0.0599
G1 X-83.616 Y59.077 E0.0084
G1 X-80.650 Y62.043 E0.0628
G1 X-80.510 Y61.617 E0.0067
G1 X-83.614 Y58.513 E0.0657
G1 X-83.613 Y57.949 E0.0084
G1 X-80.370 Y61.191 E0.0686
G1 X-80.231 Y60.765 E0.0067
G1 X-83.611 Y57.385 E0.0715
G1 X-83.609 Y56.821 E0.0084
G1 X-80.091 Y60.339 E0.0745
G1 X-80.020 Y60.124 E0.0034
G1 X-79.740 Y60.124 E0.0042
G1 X-83.608 Y56.257 E0.0819
G1 X-83.606 Y55.693 E0.0084
G1 X-79.173 Y60.126 E0.0938
G1 X-78.605 Y60.128 E0.0085
G1 X-83.604 Y55.129 E0.1058
G1 X-83.602 Y54.565 E0.0084
G1 X-78.038 Y60.129 E0.1178
G1 X-77.471 Y60.131 E0.0085
G1 X-83.601 Y54.001 E0.1298
G1 X-83.599 Y53.437 E0.0084
G1 X-69.667 Y67.369 E0.2949
G1 X-69.100 Y67.370 E0.0085
G1 X-83.597 Y52.873 E0.3069
G1 X-83.596 Y52.309 E0.0084
G1 X-68.533 Y67.372 E0.3188
G1 X-67.965 Y67.374 E0.0085
G1 X-83.594 Y51.745 E0.3308
G1 X-83.592 Y51.181 E0.0084
G1 X-67.398 Y67.375 E0.3428
G1 X-66.831 Y67.377 E0.0085
G1 X-83.591 Y50.617 E0.3548
G1 X-83.589 Y50.053 E0.0084
G1 X-66.263 Y67.379 E0.3667
G1 X-65.696 Y67.381 E0.0085
G1 X-83.587 Y49.489 E0.3787
G1 X-83.586 Y48.925 E0.0084
G1 X-65.128 Y67.382 E0.3907
G1 X-64.561 Y67.384 E0.0085
G1 X-83.584 Y48.361 E0.4026
G1 X-83.582 Y47.797 E0.0084
G1 X-63.994 Y67.386 E0.4146
G1 X-63.426 Y67.387 E0.0085
G1 X-83.580 Y47.233 E0.4266
G1 X-83.579 Y46.669 E0.0084
G1 X-62.859 Y67.389 E0.4386
G1 X-62.291 Y67.391 E0.0085
G1 X-83.577 Y46.105 E0.4505
G1 X-83.575 Y45.541 E0.0084
G1 X-61.724 Y67.392 E0.4625
G1 X-61.157 Y67.394 E0.0085
G1 X-83.574 Y44.977 E0.4745
G1 X-83.572 Y44.413 E0.0084
G1 X-60.589 Y67.396 E0.4865
G1 X-60.022 Y67.398 E0.0085
G1 X-83.570 Y43.849 E0.4984
G1 X-83.569 Y43.285 E0.0084
G1 X-59.455 Y67.399 E0.5104
G1 X-58.887 Y67.401 E0.0085
G1 X-83.567 Y42.721 E0.5224
G1 X-83.565 Y42.157 E0.0084
G1 X-58.320 Y67.403 E0.5344
G1 X-57.752 Y67.404 E0.0085
G1 X-83.564 Y41.593 E0.5463
G1 X-83.562 Y41.029 E0.0084
G1 X-57.185 Y67.406 E0.5583
G1 X-56.618 Y67.408 E0.0085
G1 X-83.560 Y40.465 E0.5703
G1 X-83.558 Y39.901 E0.0084
G1 X-56.050 Y67.409 E0.5823
G1 X-55.483 Y67.411 E0.0085
G1 X-83.557 Y39.337 E0.5942
G1 X-83.555 Y38.773 E0.0084
G1 X-54.915 Y67.413 E0.6062
G1 X-54.348 Y67.415 E0.0085
G1 X-83.553 Y38.209 E0.6182
G1 X-83.552 Y37.645 E0.0084
G1 X-53.781 Y67.416 E0.6302
G1 X-53.213 Y67.418 E0.0085
G1 X-83.550 Y37.081 E0.6421
G1 X-83.548 Y36.517 E0.0084
G1 X-52.646 Y67.420 E0.6541
G1 X-52.079 Y67.421 E0.0085
G1 X-83.547 Y35.953 E0.6661
G1 X-83.545 Y35.389 E0.0084
G1 X-51.511 Y67.423 E0.6780
G1 X-50.944 Y67.425 E0.0085
G1 X-83.543 Y34.825 E0.6900
G1 X-83.542 Y34.261 E0.0084
G1 X-50.376 Y67.426 E0.7020
G1 X-49.809 Y67.428 E0.0085
G1 X-83.540 Y33.697 E0.7140
G1 X-83.538 Y33.133 E0.0084
G1 X-49.242 Y67.430 E0.7259
G1 X-48.674 Y67.432 E0.0085
G1 X-83.536 Y32.569 E0.7379
G1 X-83.535 Y32.005 E0.0084
G1 X-48.107 Y67.433 E0.7499
G1 X-47.539 Y67.435 E0.0085
G1 X-83.533 Y31.441 E0.7619
G1 X-83.531 Y30.877 E0.0084
G1 X-46.972 Y67.437 E0.7738
G1 X-46.405 Y67.438 E0.0085
G1 X-83.530 Y30.313 E0.7858
G1 X-83.528 Y29.749 E0.0084
G1 X-45.837 Y67.440 E0.7978
G1 X-45.270 Y67.442 E0.0085
G1 X-83.526 Y29.185 E0.8098
G1 X-83.525 Y28.621 E0.0084
G1 X-44.702 Y67.443 E0.8217
G1 X-44.135 Y67.445 E0.0085
G1 X-83.523 Y28.057 E0.8337
G1 X-83.521 Y27.493 E0.0084
G1 X-43.568 Y67.447 E0.8457
G1 X-43.000 Y67.449 E0.0085
G1 X-83.520 Y26.929 E0.8577
G1 X-83.518 Y26.365 E0.0084
G1 X-42.433 Y67.450 E0.8696
G1 X-41.866 Y67.452 E0.0085
G1 X-83.516 Y25.801 E0.8816
G1 X-83.514 Y25.237 E0.0084
G1 X-41.298 Y67.454 E0.8936
G1 X-40.731 Y67.455 E0.0085
G1 X-83.513 Y24.673 E0.9056
G1 X-83.511 Y24.109 E0.0084
G1 X-40.163 Y67.457 E0.9175
G1 X-39.596 Y67.459 E0.0085
G1 X-83.509 Y23.545 E0.9295
G1 X-83.508 Y22.981 E0.0084
G1 X-39.029 Y67.460 E0.9415
G1 X-38.461 Y67.462 E0.0085
G1 X-83.506 Y22.417 E0.9534
G1 X-67.399 Y-63.865 F4200
G1 X-67.008 Y-63.474 E0.0083 F1440
G1 X-67.010 Y-62.910 E0.0084
G1 X-67.967 Y-63.867 E0.0203
G1 X-68.534 Y-63.869 E0.0085
G1 X-67.012 Y-62.346 E0.0322
G1 X-67.013 Y-61.782 E0.0084
G1 X-69.102 Y-63.870 E0.0442
G1 X-69.669 Y-63.872 E0.0085
G1 X-67.015 Y-61.218 E0.0562
G1 X-67.017 Y-60.654 E0.0084
G1 X-70.236 Y-63.874 E0.0681
G1 X-70.804 Y-63.875 E0.0085
G1 X-67.019 Y-60.090 E0.0801
G1 X-67.020 Y-59.526 E0.0084
G1 X-71.371 Y-63.877 E0.0921
G1 X-71.939 Y-63.879 E0.0085
G1 X-67.022 Y-58.962 E0.1041
G1 X-67.024 Y-58.398 E0.0084
G1 X-72.506 Y-63.880 E0.1160
G1 X-73.073 Y-63.882 E0.0085
G1 X-67.025 Y-57.834 E0.1280
G1 X-67.027 Y-57.270 E0.0084
