; G-Code generated by Simplify3D(R) Version 4.0.1
; Aug 19, 2018 at 2:42:27 PM
; Settings Summary
;   processName,Process1
;   applyToModels,front_frame_left
;   profileName,Qidi Technology Qidi Tech I (modified)
;   profileVersion,2016-08-03 08:00:00
;   baseProfile,
;   printMaterial,PLA
;   printQuality,High
;   printExtruders,Left Extruder Only
;   extruderName,Right Extruder,Left Extruder
;   extruderToolheadNumber,0,1
;   extruderDiameter,0.4,0.4
;   extruderAutoWidth,0,0
;   extruderWidth,0.4,0.4
;   extrusionMultiplier,0.9,0.9
;   extruderUseRetract,1,1
;   extruderRetractionDistance,1,1
;   extruderExtraRestartDistance,0,0
;   extruderRetractionZLift,0,0
;   extruderRetractionSpeed,1200,1200
;   extruderUseCoasting,0,0
;   extruderCoastingDistance,0.2,0.2
;   extruderUseWipe,0,0
;   extruderWipeDistance,5,5
;   primaryExtruder,1
;   layerHeight,0.1
;   topSolidLayers,4
;   bottomSolidLayers,4
;   perimeterOutlines,2
;   printPerimetersInsideOut,1
;   startPointOption,2
;   startPointOriginX,0
;   startPointOriginY,0
;   sequentialIslands,0
;   spiralVaseMode,0
;   firstLayerHeightPercentage,90
;   firstLayerWidthPercentage,100
;   firstLayerUnderspeed,0.5
;   useRaft,0
;   raftExtruder,1
;   raftTopLayers,3
;   raftBaseLayers,2
;   raftOffset,3
;   raftSeparationDistance,0.14
;   raftTopInfill,100
;   aboveRaftSpeedMultiplier,0.3
;   useSkirt,1
;   skirtExtruder,1
;   skirtLayers,2
;   skirtOutlines,6
;   skirtOffset,0
;   usePrimePillar,0
;   primePillarExtruder,999
;   primePillarWidth,12
;   primePillarLocation,7
;   primePillarSpeedMultiplier,1
;   useOozeShield,0
;   oozeShieldExtruder,999
;   oozeShieldOffset,1
;   oozeShieldOutlines,1
;   oozeShieldSidewallShape,1
;   oozeShieldSidewallAngle,30
;   oozeShieldSpeedMultiplier,1
;   infillExtruder,1
;   internalInfillPattern,Rectilinear
;   externalInfillPattern,Rectilinear
;   infillPercentage,30
;   outlineOverlapPercentage,30
;   infillExtrusionWidthPercentage,100
;   minInfillLength,5
;   infillLayerInterval,1
;   internalInfillAngles,45,-45
;   overlapInternalInfillAngles,0
;   externalInfillAngles,45,-45
;   generateSupport,0
;   supportExtruder,1
;   supportInfillPercentage,40
;   supportExtraInflation,0
;   supportBaseLayers,0
;   denseSupportExtruder,1
;   denseSupportLayers,0
;   denseSupportInfillPercentage,70
;   supportLayerInterval,1
;   supportHorizontalPartOffset,0.3
;   supportUpperSeparationLayers,1
;   supportLowerSeparationLayers,1
;   supportType,0
;   supportGridSpacing,4
;   maxOverhangAngle,45
;   supportAngles,0
;   temperatureName,Right Extruder,Left Extruder,Heated Build Platform
;   temperatureNumber,0,1,0
;   temperatureSetpointCount,1,1,2
;   temperatureSetpointLayers,1,1,1,2
;   temperatureSetpointTemperatures,0,205,65,45
;   temperatureStabilizeAtStartup,0,0,0
;   temperatureHeatedBed,0,0,1
;   temperatureRelayBetweenLayers,0,0,0
;   temperatureRelayBetweenLoops,0,0,0
;   fanLayers,1,2
;   fanSpeeds,0,100
;   blipFanToFullPower,0
;   adjustSpeedForCooling,1
;   minSpeedLayerTime,15
;   minCoolingSpeedSlowdown,20
;   increaseFanForCooling,0
;   minFanLayerTime,45
;   maxCoolingFanSpeed,100
;   increaseFanForBridging,1
;   bridgingFanSpeed,100
;   use5D,1
;   relativeEdistances,1
;   allowEaxisZeroing,0
;   independentExtruderAxes,1
;   includeM10123,0
;   stickySupport,1
;   applyToolheadOffsets,0
;   gcodeXoffset,0
;   gcodeYoffset,0
;   gcodeZoffset,0
;   overrideMachineDefinition,1
;   machineTypeOverride,0
;   strokeXoverride,225
;   strokeYoverride,145
;   strokeZoverride,150
;   originOffsetXoverride,112.5
;   originOffsetYoverride,72.5
;   originOffsetZoverride,0
;   homeXdirOverride,1
;   homeYdirOverride,1
;   homeZdirOverride,-1
;   flipXoverride,1
;   flipYoverride,-1
;   flipZoverride,1
;   toolheadOffsets,0,0|34,0|0,0|0,0|0,0|0,0
;   overrideFirmwareConfiguration,1
;   firmwareTypeOverride,MakerBot/Sailfish Firmware
;   GPXconfigOverride,r1d
;   baudRateOverride,115200
;   overridePrinterModels,1
;   printerModelsOverride,MakerBot_Replicator1.stl
;   startingGcode,M73 P0 ; Enable build progress,G162 X Y F3000 ; Home XY maximum,G161 Z F1200 ; Home Z minimum,G92 X0 Y0 Z-5 A0 B0 ; Set Z to -5,G1 Z0 ; Move Z to 0,G161 Z F100 ; Home Z slowly,M132 X Y Z ; Recall home offsets,M135 T0 ; Load right extruder offsets,G1 X-110 Y-70 Z30 F9000 ; Move to wait position off table,G130 X20 Y20 Z20 A20 B20 ; Lower stepper Vrefs while heating,M126 S[fan_speed_pwm] ; Set fan speed,M140 S[bed0_temperature] T0 ; Heat buildplate ,M134 T0 ; Stabilize bed temperature,M104 S[extruder1_temperature] T1 ; Heat left extruder,M133 T1 ; Stabilize left extruder temperature,G130 X127 Y127 Z40 A127 B127 ; Default stepper Vrefs,M73 P1 ; @body (notify GPX body has started)
;   layerChangeGcode,
;   retractionGcode,
;   toolChangeGcode,
;   endingGcode,M73 P100 ; end build progress,G1 Z150 F1000 ; send Z axis to bottom of machine,M140 S0 T0 ; cool down HBP,M104 S0 T0 ; cool down right extruder,M104 S0 T1 ; cool down left extruder,M127 ; stop blower fan,G162 X Y F3000 ; home XY maximum,M18 ; disable stepper,M72 P1 ; play Ta-Da song
;   exportFileFormat,x3g
;   celebration,0
;   celebrationSong,Random Song
;   postProcessing,
;   defaultSpeed,3600
;   outlineUnderspeed,0.5
;   solidInfillUnderspeed,0.8
;   supportUnderspeed,0.8
;   rapidXYspeed,4200
;   rapidZspeed,1200
;   minBridgingArea,50
;   bridgingExtraInflation,0
;   bridgingExtrusionMultiplier,1
;   bridgingSpeedMultiplier,0.8
;   useFixedBridgingAngle,0
;   fixedBridgingAngle,0
;   applyBridgingToPerimeters,0
;   filamentDiameters,1.75|1.75|1.75|1.75|1.75|1.75
;   filamentPricesPerKg,46|46|46|46|46|46
;   filamentDensities,1.25|1.25|1.25|1.25|1.25|1.25
;   useMinPrintHeight,0
;   minPrintHeight,0
;   useMaxPrintHeight,0
;   maxPrintHeight,0
;   useDiaphragm,0
;   diaphragmLayerInterval,20
;   robustSlicing,1
;   mergeAllIntoSolid,0
;   onlyRetractWhenCrossingOutline,1
;   retractBetweenLayers,1
;   useRetractionMinTravel,0
;   retractionMinTravel,3
;   retractWhileWiping,0
;   onlyWipeOutlines,1
;   avoidCrossingOutline,0
;   maxMovementDetourFactor,3
;   toolChangeRetractionDistance,12
;   toolChangeExtraRestartDistance,-0.5
;   toolChangeRetractionSpeed,600
;   externalThinWallType,0
;   internalThinWallType,2
;   thinWallAllowedOverlapPercentage,10
;   singleExtrusionMinLength,1
;   singleExtrusionMinPrintingWidthPercentage,50
;   singleExtrusionMaxPrintingWidthPercentage,200
;   singleExtrusionEndpointExtension,0.2
;   horizontalSizeCompensation,0
G90
M83
M73 P0 ; Enable build progress
G162 X Y F3000 ; Home XY maximum
G161 Z F1200 ; Home Z minimum
G92 X0 Y0 Z-5 A0 B0 ; Set Z to -5
G1 Z0 ; Move Z to 0
G161 Z F100 ; Home Z slowly
M132 X Y Z ; Recall home offsets
M135 T0 ; Load right extruder offsets
G1 X-110 Y-70 Z30 F9000 ; Move to wait position off table
G130 X20 Y20 Z20 A20 B20 ; Lower stepper Vrefs while heating
M127 ; Set fan speed
M140 S65 T0 ; Heat buildplate 
M134 T0 ; Stabilize bed temperature
M104 S205 T1 ; Heat left extruder
M133 T1 ; Stabilize left extruder temperature
G130 X127 Y127 Z40 A127 B127 ; Default stepper Vrefs
M73 P1 ; @body (notify GPX body has started)
G1 E-1.0000 F1200
G1 Z0.090 F1200
; process Process1
; layer 1, Z = 0.090
M135 T1
; tool H0.100 W0.400
; skirt
G1 X54.053 Y43.173 F4200
G1 E1.0000 F360
G1 X55.161 Y42.896 E0.0171 F1800
G1 X55.754 Y42.366 E0.0119
G1 X56.188 Y40.953 E0.0221
G1 X55.747 Y-70.726 E1.6715
G1 X57.030 Y-72.020 E0.0273
G1 X82.341 Y-72.120 E0.3788
G1 X83.634 Y-70.837 E0.0273
G1 X84.186 Y68.698 E2.0884
G1 X82.902 Y69.992 E0.0273
G1 X-82.346 Y70.645 E2.4733
G1 X-83.639 Y69.362 E0.0273
G1 X-84.191 Y-70.173 E2.0884
G1 X-82.907 Y-71.467 E0.0273
G1 X-70.597 Y-71.516 E0.1842
G1 X-69.303 Y-70.232 E0.0273
G1 X-68.862 Y41.515 E1.6725
G1 X-68.584 Y42.623 E0.0171
G1 X-68.054 Y43.216 E0.0119
G1 X-66.641 Y43.650 E0.0221
G1 X54.053 Y43.173 E1.8064
G1 X54.103 Y43.573 F4200
G1 X55.353 Y43.260 E0.0193 F1800
G1 X56.104 Y42.590 E0.0151
G1 X56.588 Y41.012 E0.0247
G1 X56.147 Y-70.562 E1.6700
G1 X57.198 Y-71.621 E0.0223
G1 X82.176 Y-71.720 E0.3739
G1 X83.235 Y-70.669 E0.0223
G1 X83.785 Y68.534 E2.0835
G1 X82.735 Y69.593 E0.0223
G1 X-82.182 Y70.245 E2.4683
G1 X-83.240 Y69.194 E0.0223
G1 X-83.790 Y-70.009 E2.0835
G1 X-82.740 Y-71.068 E0.0223
G1 X-70.761 Y-71.115 E0.1793
G1 X-69.703 Y-70.065 E0.0223
G1 X-69.261 Y41.565 E1.6708
G1 X-68.948 Y42.816 E0.0193
G1 X-68.278 Y43.566 E0.0151
G1 X-66.701 Y44.051 E0.0247
G1 X54.103 Y43.573 E1.8081
G1 X54.153 Y43.973 F4200
G1 X55.546 Y43.624 E0.0215 F1800
G1 X56.453 Y42.814 E0.0182
G1 X56.989 Y41.072 E0.0273
G1 X56.548 Y-70.398 E1.6684
G1 X57.365 Y-71.221 E0.0174
G1 X82.012 Y-71.319 E0.3689
G1 X82.836 Y-70.502 E0.0174
G1 X83.385 Y68.370 E2.0785
G1 X82.568 Y69.194 E0.0174
G1 X-82.017 Y69.844 E2.4634
G1 X-82.841 Y69.027 E0.0174
G1 X-83.390 Y-69.845 E2.0785
G1 X-82.573 Y-70.668 E0.0174
G1 X-70.925 Y-70.714 E0.1743
G1 X-70.102 Y-69.898 E0.0174
G1 X-69.661 Y41.615 E1.6690
G1 X-69.312 Y43.008 E0.0215
G1 X-68.502 Y43.916 E0.0182
G1 X-66.760 Y44.451 E0.0273
G1 X54.153 Y43.973 E1.8097
G1 X54.203 Y44.373 F4200
G1 X55.739 Y43.988 E0.0237 F1800
G1 X56.803 Y43.038 E0.0213
G1 X57.389 Y41.131 E0.0299
G1 X56.949 Y-70.234 E1.6668
G1 X57.532 Y-70.822 E0.0124
G1 X81.848 Y-70.918 E0.3639
G1 X82.436 Y-70.335 E0.0124
G1 X82.984 Y68.206 E2.0736
G1 X82.400 Y68.794 E0.0124
G1 X-81.853 Y69.443 E2.4584
G1 X-82.441 Y68.860 E0.0124
G1 X-82.989 Y-69.681 E2.0736
G1 X-82.405 Y-70.269 E0.0124
G1 X-71.089 Y-70.314 E0.1694
G1 X-70.501 Y-69.730 E0.0124
G1 X-70.061 Y41.665 E1.6673
G1 X-69.676 Y43.201 E0.0237
G1 X-68.726 Y44.265 E0.0213
G1 X-66.819 Y44.851 E0.0299
G1 X54.203 Y44.373 E1.8114
G1 X54.253 Y44.773 F4200
G1 X55.932 Y44.352 E0.0259 F1800
G1 X57.153 Y43.262 E0.0245
G1 X57.789 Y41.190 E0.0324
G1 X57.349 Y-70.070 E1.6652
G1 X57.699 Y-70.423 E0.0074
G1 X81.684 Y-70.518 E0.3590
G1 X82.037 Y-70.167 E0.0074
G1 X82.583 Y68.042 E2.0686
G1 X82.233 Y68.395 E0.0074
G1 X-81.689 Y69.043 E2.4535
G1 X-82.042 Y68.693 E0.0074
G1 X-82.588 Y-69.517 E2.0686
G1 X-82.238 Y-69.870 E0.0074
G1 X-71.253 Y-69.913 E0.1644
G1 X-70.901 Y-69.563 E0.0074
G1 X-70.461 Y41.715 E1.6655
G1 X-70.040 Y43.394 E0.0259
G1 X-68.950 Y44.615 E0.0245
G1 X-66.878 Y45.251 E0.0324
G1 X54.253 Y44.773 E1.8130
G1 X54.303 Y45.172 F4200
G1 X56.125 Y44.716 E0.0281 F1800
G1 X57.502 Y43.486 E0.0276
G1 X58.189 Y41.249 E0.0350
G1 X57.750 Y-69.906 E1.6637
G1 X57.867 Y-70.023 E0.0025
G1 X81.520 Y-70.117 E0.3540
G1 X81.638 Y-70.000 E0.0025
G1 X82.183 Y67.878 E2.0636
G1 X82.066 Y67.996 E0.0025
G1 X-81.525 Y68.642 E2.4485
G1 X-81.643 Y68.525 E0.0025
G1 X-82.188 Y-69.353 E2.0636
G1 X-82.071 Y-69.470 E0.0025
G1 X-71.418 Y-69.512 E0.1595
G1 X-71.300 Y-69.396 E0.0025
G1 X-70.861 Y41.766 E1.6638
G1 X-70.404 Y43.587 E0.0281
G1 X-69.174 Y44.964 E0.0276
G1 X-66.938 Y45.652 E0.0350
G1 X54.303 Y45.172 E1.8146
G1 E-1.0000 F1200
; inner perimeter
G1 X54.432 Y46.026 F4200
G1 E1.0000 F1200
G1 X56.540 Y45.498 E0.0325 F1350
G1 X58.231 Y43.987 E0.0339
G1 X59.020 Y41.420 E0.0402
G1 X58.583 Y-69.226 E1.6561
G1 X80.809 Y-69.314 E0.3327
G1 X81.348 Y67.167 E2.0427
G1 X-80.814 Y67.808 E2.4271
G1 X-81.353 Y-68.673 E2.0427
G1 X-72.127 Y-68.710 E0.1381
G1 X-71.690 Y41.918 E1.6558
G1 X-71.162 Y44.026 E0.0325
G1 X-69.651 Y45.717 E0.0339
G1 X-67.084 Y46.506 E0.0402
G1 X54.432 Y46.026 E1.8188
; outer perimeter
G1 X54.382 Y45.626 F4200
G1 X56.347 Y45.133 E0.0303 F900
G1 X57.882 Y43.763 E0.0308
G1 X58.620 Y41.360 E0.0376
G1 X58.181 Y-69.625 E1.6611
G1 X81.207 Y-69.716 E0.3446
G1 X81.750 Y67.565 E2.0547
G1 X-81.212 Y68.209 E2.4391
G1 X-81.755 Y-69.072 E2.0547
G1 X-71.729 Y-69.111 E0.1501
G1 X-71.290 Y41.868 E1.6610
G1 X-70.798 Y43.833 E0.0303
G1 X-69.427 Y45.368 E0.0308
G1 X-67.025 Y46.106 E0.0376
G1 X54.382 Y45.626 E1.8171
; inner perimeter
G1 X45.488 Y53.071 F4200
G1 X45.303 Y52.920 E0.0036 F1350
G1 X44.966 Y52.736 E0.0057
G1 X44.577 Y52.638 E0.0060
G1 X38.339 Y52.655 E0.0934
G1 X37.996 Y52.699 E0.0052
G1 X37.768 Y52.774 E0.0036
G1 X37.433 Y52.960 E0.0057
G1 X37.140 Y53.239 E0.0060
G1 X36.936 Y53.562 E0.0057
G1 X36.850 Y53.784 E0.0036
G1 X36.783 Y54.141 E0.0054
G1 X36.824 Y64.382 E0.1533
G1 X36.898 Y64.758 E0.0057
G1 X37.071 Y65.121 E0.0060
G1 X37.328 Y65.429 E0.0060
G1 X37.653 Y65.663 E0.0060
G1 X38.028 Y65.811 E0.0060
G1 X38.390 Y65.855 E0.0055
G1 X44.465 Y65.830 E0.0909
G1 X44.808 Y65.786 E0.0052
G1 X45.035 Y65.711 E0.0036
G1 X45.354 Y65.534 E0.0055
G1 X45.538 Y65.380 E0.0036
G1 X45.781 Y65.083 E0.0057
G1 X45.950 Y64.719 E0.0060
G1 X46.020 Y64.344 E0.0057
G1 X45.979 Y54.103 E0.1533
G1 X45.905 Y53.727 E0.0057
G1 X45.732 Y53.364 E0.0060
G1 X45.488 Y53.071 E0.0057
; outer perimeter
G1 X45.205 Y53.356 F4200
G1 X45.079 Y53.253 E0.0024 F900
G1 X44.820 Y53.112 E0.0044
G1 X44.528 Y53.038 E0.0045
G1 X38.365 Y53.054 E0.0922
G1 X38.085 Y53.091 E0.0042
G1 X37.929 Y53.142 E0.0025
G1 X37.671 Y53.285 E0.0044
G1 X37.452 Y53.494 E0.0045
G1 X37.295 Y53.743 E0.0044
G1 X37.236 Y53.894 E0.0024
G1 X37.183 Y54.177 E0.0043
G1 X37.224 Y64.343 E0.1521
G1 X37.281 Y64.632 E0.0044
G1 X37.410 Y64.904 E0.0045
G1 X37.602 Y65.134 E0.0045
G1 X37.846 Y65.309 E0.0045
G1 X38.127 Y65.420 E0.0045
G1 X38.414 Y65.454 E0.0043
G1 X44.438 Y65.431 E0.0902
G1 X44.718 Y65.395 E0.0042
G1 X44.874 Y65.343 E0.0024
G1 X45.126 Y65.203 E0.0043
G1 X45.252 Y65.097 E0.0025
G1 X45.439 Y64.869 E0.0044
G1 X45.566 Y64.596 E0.0045
G1 X45.620 Y64.308 E0.0044
G1 X45.579 Y54.143 E0.1521
G1 X45.522 Y53.853 E0.0044
G1 X45.393 Y53.581 E0.0045
G1 X45.205 Y53.356 E0.0044
G1 E-1.0000 F1200
; inner perimeter
G1 X22.146 Y54.197 F4200
G1 E1.0000 F1200
G1 X22.072 Y53.821 E0.0057 F1350
G1 X21.899 Y53.458 E0.0060
G1 X21.654 Y53.165 E0.0057
G1 X21.470 Y53.014 E0.0036
G1 X21.132 Y52.830 E0.0058
G1 X20.743 Y52.732 E0.0060
G1 X14.505 Y52.749 E0.0934
G1 X14.161 Y52.793 E0.0052
G1 X13.935 Y52.868 E0.0036
G1 X13.599 Y53.055 E0.0057
G1 X13.307 Y53.333 E0.0060
G1 X13.103 Y53.656 E0.0057
G1 X13.017 Y53.878 E0.0036
G1 X12.950 Y54.235 E0.0054
G1 X12.991 Y64.477 E0.1533
G1 X13.065 Y64.853 E0.0057
G1 X13.238 Y65.216 E0.0060
G1 X13.495 Y65.523 E0.0060
G1 X13.820 Y65.757 E0.0060
G1 X14.195 Y65.905 E0.0060
G1 X14.557 Y65.949 E0.0055
G1 X20.632 Y65.925 E0.0909
G1 X20.974 Y65.881 E0.0052
G1 X21.202 Y65.805 E0.0036
G1 X21.520 Y65.628 E0.0054
G1 X21.705 Y65.474 E0.0036
G1 X21.948 Y65.178 E0.0057
G1 X22.117 Y64.813 E0.0060
G1 X22.187 Y64.438 E0.0057
G1 X22.146 Y54.197 E0.1533
; outer perimeter
G1 X21.746 Y54.237 F4200
G1 X21.689 Y53.948 E0.0044 F900
G1 X21.560 Y53.676 E0.0045
G1 X21.372 Y53.451 E0.0044
G1 X21.245 Y53.347 E0.0024
G1 X20.985 Y53.205 E0.0044
G1 X20.694 Y53.132 E0.0045
G1 X14.531 Y53.149 E0.0922
G1 X14.250 Y53.185 E0.0042
G1 X14.096 Y53.236 E0.0024
G1 X13.838 Y53.380 E0.0044
G1 X13.619 Y53.588 E0.0045
G1 X13.462 Y53.837 E0.0044
G1 X13.403 Y53.988 E0.0024
G1 X13.350 Y54.271 E0.0043
G1 X13.391 Y64.437 E0.1521
G1 X13.447 Y64.726 E0.0044
G1 X13.577 Y64.998 E0.0045
G1 X13.769 Y65.228 E0.0045
G1 X14.013 Y65.403 E0.0045
G1 X14.294 Y65.514 E0.0045
G1 X14.580 Y65.549 E0.0043
G1 X20.605 Y65.525 E0.0902
G1 X20.885 Y65.489 E0.0042
G1 X21.041 Y65.437 E0.0025
G1 X21.293 Y65.297 E0.0043
G1 X21.419 Y65.191 E0.0025
G1 X21.606 Y64.963 E0.0044
G1 X21.733 Y64.690 E0.0045
G1 X21.786 Y64.402 E0.0044
G1 X21.746 Y54.237 E0.1521
G1 E-1.0000 F1200
; inner perimeter
G1 X-1.687 Y54.293 F4200
G1 E1.0000 F1200
G1 X-1.757 Y53.936 E0.0054 F1350
G1 X-1.846 Y53.714 E0.0036
G1 X-2.052 Y53.392 E0.0057
G1 X-2.344 Y53.119 E0.0060
G1 X-2.698 Y52.925 E0.0060
G1 X-3.088 Y52.827 E0.0060
G1 X-9.310 Y52.843 E0.0931
G1 X-9.508 Y52.856 E0.0030
G1 X-9.879 Y52.952 E0.0057
G1 X-10.214 Y53.138 E0.0057
G1 X-10.398 Y53.291 E0.0036
G1 X-10.631 Y53.573 E0.0055
G1 X-10.736 Y53.767 E0.0033
G1 X-10.816 Y53.972 E0.0033
G1 X-10.883 Y54.329 E0.0054
G1 X-10.843 Y64.569 E0.1533
G1 X-10.769 Y64.945 E0.0057
G1 X-10.597 Y65.308 E0.0060
G1 X-10.339 Y65.617 E0.0060
G1 X-10.015 Y65.850 E0.0060
G1 X-9.640 Y65.999 E0.0060
G1 X-9.278 Y66.043 E0.0055
G1 X-3.202 Y66.019 E0.0909
G1 X-2.841 Y65.973 E0.0054
G1 X-2.468 Y65.823 E0.0060
G1 X-2.144 Y65.586 E0.0060
