; G-Code generated by Simplify3D(R) Version 4.0.1
; Aug 19, 2018 at 2:21:19 PM
; Settings Summary
;   processName,Process1
;   applyToModels,front_frame_right
;   profileName,Qidi Technology Qidi Tech I (modified)
;   profileVersion,2016-08-03 08:00:00
;   baseProfile,
;   printMaterial,PLA
;   printQuality,High
;   printExtruders,Left Extruder Only
;   extruderName,Right Extruder,Left Extruder
;   extruderToolheadNumber,0,1
;   extruderDiameter,0.4,0.4
;   extruderAutoWidth,0,0
;   extruderWidth,0.4,0.4
;   extrusionMultiplier,0.9,0.9
;   extruderUseRetract,1,1
;   extruderRetractionDistance,1,1
;   extruderExtraRestartDistance,0,0
;   extruderRetractionZLift,0,0
;   extruderRetractionSpeed,1200,1200
;   extruderUseCoasting,0,0
;   extruderCoastingDistance,0.2,0.2
;   extruderUseWipe,0,0
;   extruderWipeDistance,5,5
;   primaryExtruder,1
;   layerHeight,0.1
;   topSolidLayers,4
;   bottomSolidLayers,4
;   perimeterOutlines,2
;   printPerimetersInsideOut,1
;   startPointOption,2
;   startPointOriginX,0
;   startPointOriginY,0
;   sequentialIslands,0
;   spiralVaseMode,0
;   firstLayerHeightPercentage,90
;   firstLayerWidthPercentage,100
;   firstLayerUnderspeed,0.5
;   useRaft,0
;   raftExtruder,1
;   raftTopLayers,3
;   raftBaseLayers,2
;   raftOffset,3
;   raftSeparationDistance,0.14
;   raftTopInfill,100
;   aboveRaftSpeedMultiplier,0.3
;   useSkirt,1
;   skirtExtruder,1
;   skirtLayers,2
;   skirtOutlines,6
;   skirtOffset,0
;   usePrimePillar,0
;   primePillarExtruder,999
;   primePillarWidth,12
;   primePillarLocation,7
;   primePillarSpeedMultiplier,1
;   useOozeShield,0
;   oozeShieldExtruder,999
;   oozeShieldOffset,1
;   oozeShieldOutlines,1
;   oozeShieldSidewallShape,1
;   oozeShieldSidewallAngle,30
;   oozeShieldSpeedMultiplier,1
;   infillExtruder,1
;   internalInfillPattern,Rectilinear
;   externalInfillPattern,Rectilinear
;   infillPercentage,30
;   outlineOverlapPercentage,30
;   infillExtrusionWidthPercentage,100
;   minInfillLength,5
;   infillLayerInterval,1
;   internalInfillAngles,45,-45
;   overlapInternalInfillAngles,0
;   externalInfillAngles,45,-45
;   generateSupport,0
;   supportExtruder,1
;   supportInfillPercentage,40
;   supportExtraInflation,0
;   supportBaseLayers,0
;   denseSupportExtruder,1
;   denseSupportLayers,0
;   denseSupportInfillPercentage,70
;   supportLayerInterval,1
;   supportHorizontalPartOffset,0.3
;   supportUpperSeparationLayers,1
;   supportLowerSeparationLayers,1
;   supportType,0
;   supportGridSpacing,4
;   maxOverhangAngle,45
;   supportAngles,0
;   temperatureName,Right Extruder,Left Extruder,Heated Build Platform
;   temperatureNumber,0,1,0
;   temperatureSetpointCount,1,1,2
;   temperatureSetpointLayers,1,1,1,2
;   temperatureSetpointTemperatures,0,205,65,45
;   temperatureStabilizeAtStartup,0,0,0
;   temperatureHeatedBed,0,0,1
;   temperatureRelayBetweenLayers,0,0,0
;   temperatureRelayBetweenLoops,0,0,0
;   fanLayers,1,2
;   fanSpeeds,0,100
;   blipFanToFullPower,0
;   adjustSpeedForCooling,1
;   minSpeedLayerTime,15
;   minCoolingSpeedSlowdown,20
;   increaseFanForCooling,0
;   minFanLayerTime,45
;   maxCoolingFanSpeed,100
;   increaseFanForBridging,1
;   bridgingFanSpeed,100
;   use5D,1
;   relativeEdistances,1
;   allowEaxisZeroing,0
;   independentExtruderAxes,1
;   includeM10123,0
;   stickySupport,1
;   applyToolheadOffsets,0
;   gcodeXoffset,0
;   gcodeYoffset,0
;   gcodeZoffset,0
;   overrideMachineDefinition,1
;   machineTypeOverride,0
;   strokeXoverride,225
;   strokeYoverride,145
;   strokeZoverride,150
;   originOffsetXoverride,112.5
;   originOffsetYoverride,72.5
;   originOffsetZoverride,0
;   homeXdirOverride,1
;   homeYdirOverride,1
;   homeZdirOverride,-1
;   flipXoverride,1
;   flipYoverride,-1
;   flipZoverride,1
;   toolheadOffsets,0,0|34,0|0,0|0,0|0,0|0,0
;   overrideFirmwareConfiguration,1
;   firmwareTypeOverride,MakerBot/Sailfish Firmware
;   GPXconfigOverride,r1d
;   baudRateOverride,115200
;   overridePrinterModels,1
;   printerModelsOverride,MakerBot_Replicator1.stl
;   startingGcode,M73 P0 ; Enable build progress,G162 X Y F3000 ; Home XY maximum,G161 Z F1200 ; Home Z minimum,G92 X0 Y0 Z-5 A0 B0 ; Set Z to -5,G1 Z0 ; Move Z to 0,G161 Z F100 ; Home Z slowly,M132 X Y Z ; Recall home offsets,M135 T0 ; Load right extruder offsets,G1 X-110 Y-70 Z30 F9000 ; Move to wait position off table,G130 X20 Y20 Z20 A20 B20 ; Lower stepper Vrefs while heating,M126 S[fan_speed_pwm] ; Set fan speed,M140 S[bed0_temperature] T0 ; Heat buildplate ,M134 T0 ; Stabilize bed temperature,M104 S[extruder1_temperature] T1 ; Heat left extruder,M133 T1 ; Stabilize left extruder temperature,G130 X127 Y127 Z40 A127 B127 ; Default stepper Vrefs,M73 P1 ; @body (notify GPX body has started)
;   layerChangeGcode,
;   retractionGcode,
;   toolChangeGcode,
;   endingGcode,M73 P100 ; end build progress,G1 Z150 F1000 ; send Z axis to bottom of machine,M140 S0 T0 ; cool down HBP,M104 S0 T0 ; cool down right extruder,M104 S0 T1 ; cool down left extruder,M127 ; stop blower fan,G162 X Y F3000 ; home XY maximum,M18 ; disable stepper,M72 P1 ; play Ta-Da song
;   exportFileFormat,x3g
;   celebration,0
;   celebrationSong,Random Song
;   postProcessing,
;   defaultSpeed,3600
;   outlineUnderspeed,0.5
;   solidInfillUnderspeed,0.8
;   supportUnderspeed,0.8
;   rapidXYspeed,4200
;   rapidZspeed,1200
;   minBridgingArea,50
;   bridgingExtraInflation,0
;   bridgingExtrusionMultiplier,1
;   bridgingSpeedMultiplier,0.8
;   useFixedBridgingAngle,0
;   fixedBridgingAngle,0
;   applyBridgingToPerimeters,0
;   filamentDiameters,1.75|1.75|1.75|1.75|1.75|1.75
;   filamentPricesPerKg,46|46|46|46|46|46
;   filamentDensities,1.25|1.25|1.25|1.25|1.25|1.25
;   useMinPrintHeight,0
;   minPrintHeight,0
;   useMaxPrintHeight,0
;   maxPrintHeight,0
;   useDiaphragm,0
;   diaphragmLayerInterval,20
;   robustSlicing,1
;   mergeAllIntoSolid,0
;   onlyRetractWhenCrossingOutline,1
;   retractBetweenLayers,1
;   useRetractionMinTravel,0
;   retractionMinTravel,3
;   retractWhileWiping,0
;   onlyWipeOutlines,1
;   avoidCrossingOutline,0
;   maxMovementDetourFactor,3
;   toolChangeRetractionDistance,12
;   toolChangeExtraRestartDistance,-0.5
;   toolChangeRetractionSpeed,600
;   externalThinWallType,0
;   internalThinWallType,2
;   thinWallAllowedOverlapPercentage,10
;   singleExtrusionMinLength,1
;   singleExtrusionMinPrintingWidthPercentage,50
;   singleExtrusionMaxPrintingWidthPercentage,200
;   singleExtrusionEndpointExtension,0.2
;   horizontalSizeCompensation,0
G90
M83
M73 P0 ; Enable build progress
G162 X Y F3000 ; Home XY maximum
G161 Z F1200 ; Home Z minimum
G92 X0 Y0 Z-5 A0 B0 ; Set Z to -5
G1 Z0 ; Move Z to 0
G161 Z F100 ; Home Z slowly
M132 X Y Z ; Recall home offsets
M135 T0 ; Load right extruder offsets
G1 X-110 Y-70 Z30 F9000 ; Move to wait position off table
G130 X20 Y20 Z20 A20 B20 ; Lower stepper Vrefs while heating
M127 ; Set fan speed
M140 S65 T0 ; Heat buildplate 
M134 T0 ; Stabilize bed temperature
M104 S205 T1 ; Heat left extruder
M133 T1 ; Stabilize left extruder temperature
G130 X127 Y127 Z40 A127 B127 ; Default stepper Vrefs
M73 P1 ; @body (notify GPX body has started)
G1 E-1.0000 F1200
G1 Z0.090 F1200
; process Process1
; layer 1, Z = 0.090
M135 T1
; tool H0.100 W0.400
; skirt
G1 X-54.395 Y44.331 F4200
G1 E1.0000 F360
G1 X66.299 Y43.724 E1.8064 F1800
G1 X67.406 Y43.445 E0.0171
G1 X67.999 Y42.914 E0.0119
G1 X68.432 Y41.501 E0.0221
G1 X67.879 Y-68.139 E1.6410
G1 X69.162 Y-69.435 E0.0273
G1 X81.472 Y-69.497 E0.1842
G1 X82.767 Y-68.214 E0.0273
G1 X83.460 Y69.320 E2.0585
G1 X82.177 Y70.615 E0.0273
G1 X-83.070 Y71.447 E2.4733
G1 X-84.365 Y70.165 E0.0273
G1 X-85.057 Y-67.369 E2.0585
G1 X-83.775 Y-68.665 E0.0273
G1 X-58.465 Y-68.792 E0.3788
G1 X-57.170 Y-67.510 E0.0273
G1 X-56.618 Y42.198 E1.6420
G1 X-56.339 Y43.306 E0.0171
G1 X-55.808 Y43.899 E0.0119
G1 X-54.395 Y44.331 E0.0221
G1 X-54.454 Y44.732 F4200
G1 X66.349 Y44.123 E1.8081 F1800
G1 X67.599 Y43.809 E0.0193
G1 X68.349 Y43.138 E0.0151
G1 X68.832 Y41.560 E0.0247
G1 X68.280 Y-67.976 E1.6394
G1 X69.329 Y-69.035 E0.0223
G1 X81.308 Y-69.096 E0.1793
G1 X82.368 Y-68.047 E0.0223
G1 X83.059 Y69.156 E2.0536
G1 X82.010 Y70.216 E0.0223
G1 X-82.906 Y71.046 E2.4683
G1 X-83.966 Y69.997 E0.0223
G1 X-84.657 Y-67.206 E2.0536
G1 X-83.608 Y-68.265 E0.0223
G1 X-58.629 Y-68.391 E0.3739
G1 X-57.569 Y-67.342 E0.0223
G1 X-57.017 Y42.249 E1.6403
G1 X-56.703 Y43.499 E0.0193
G1 X-56.032 Y44.249 E0.0151
G1 X-54.454 Y44.732 E0.0247
G1 X-54.513 Y45.132 F4200
G1 X66.400 Y44.523 E1.8097 F1800
G1 X67.793 Y44.172 E0.0215
G1 X68.699 Y43.362 E0.0182
G1 X69.232 Y41.618 E0.0273
G1 X68.681 Y-67.812 E1.6379
G1 X69.497 Y-68.636 E0.0174
G1 X81.145 Y-68.695 E0.1743
G1 X81.969 Y-67.879 E0.0174
G1 X82.658 Y68.993 E2.0486
G1 X81.842 Y69.817 E0.0174
G1 X-82.742 Y70.646 E2.4634
G1 X-83.567 Y69.830 E0.0174
G1 X-84.256 Y-67.042 E2.0486
G1 X-83.440 Y-67.866 E0.0174
G1 X-58.793 Y-67.990 E0.3689
G1 X-57.968 Y-67.174 E0.0174
G1 X-57.417 Y42.299 E1.6385
G1 X-57.066 Y43.692 E0.0215
G1 X-56.255 Y44.599 E0.0182
G1 X-54.513 Y45.132 E0.0273
G1 X-54.571 Y45.532 F4200
G1 X66.450 Y44.923 E1.8114 F1800
G1 X67.986 Y44.536 E0.0237
G1 X69.049 Y43.585 E0.0213
G1 X69.632 Y41.677 E0.0299
G1 X69.082 Y-67.648 E1.6363
G1 X69.665 Y-68.237 E0.0124
G1 X80.981 Y-68.294 E0.1694
G1 X81.570 Y-67.711 E0.0124
G1 X82.257 Y68.829 E2.0436
G1 X81.674 Y69.418 E0.0124
G1 X-82.579 Y70.245 E2.4584
G1 X-83.167 Y69.662 E0.0124
G1 X-83.855 Y-66.878 E2.0436
G1 X-83.272 Y-67.467 E0.0124
G1 X-58.956 Y-67.589 E0.3639
G1 X-58.367 Y-67.007 E0.0124
G1 X-57.817 Y42.350 E1.6368
G1 X-57.430 Y43.885 E0.0237
G1 X-56.479 Y44.948 E0.0213
G1 X-54.571 Y45.532 E0.0299
G1 X-54.630 Y45.932 F4200
G1 X66.501 Y45.323 E1.8130 F1800
G1 X68.179 Y44.900 E0.0259
G1 X69.398 Y43.809 E0.0245
G1 X70.033 Y41.736 E0.0324
G1 X69.483 Y-67.485 E1.6347
G1 X69.832 Y-67.838 E0.0074
G1 X80.817 Y-67.893 E0.1644
G1 X81.170 Y-67.544 E0.0074
G1 X81.856 Y68.665 E2.0387
G1 X81.507 Y69.019 E0.0074
G1 X-82.415 Y69.844 E2.4535
G1 X-82.768 Y69.494 E0.0074
G1 X-83.454 Y-66.715 E2.0387
G1 X-83.104 Y-67.068 E0.0074
G1 X-59.120 Y-67.189 E0.3590
G1 X-58.767 Y-66.839 E0.0074
G1 X-58.217 Y42.400 E1.6350
G1 X-57.794 Y44.079 E0.0259
G1 X-56.703 Y45.298 E0.0245
G1 X-54.630 Y45.932 E0.0324
G1 X-54.689 Y46.333 F4200
G1 X66.551 Y45.722 E1.8146 F1800
G1 X68.372 Y45.264 E0.0281
G1 X69.748 Y44.033 E0.0276
G1 X70.433 Y41.795 E0.0350
G1 X69.884 Y-67.321 E1.6332
G1 X70.000 Y-67.439 E0.0025
G1 X80.654 Y-67.492 E0.1595
G1 X80.771 Y-67.376 E0.0025
G1 X81.455 Y68.502 E2.0337
G1 X81.339 Y68.619 E0.0025
G1 X-82.251 Y69.443 E2.4485
G1 X-82.369 Y69.327 E0.0025
G1 X-83.053 Y-66.551 E2.0337
G1 X-82.937 Y-66.669 E0.0025
G1 X-59.284 Y-66.788 E0.3540
G1 X-59.166 Y-66.671 E0.0025
G1 X-58.616 Y42.451 E1.6333
G1 X-58.158 Y44.272 E0.0281
G1 X-56.926 Y45.648 E0.0276
G1 X-54.689 Y46.333 E0.0350
G1 E-1.0000 F1200
; inner perimeter
G1 X-54.835 Y47.186 F4200
G1 E1.0000 F1200
G1 X66.681 Y46.574 E1.8188 F1350
G1 X68.788 Y46.044 E0.0325
G1 X70.478 Y44.532 E0.0339
G1 X71.264 Y41.963 E0.0402
G1 X70.717 Y-66.642 E1.6255
G1 X79.943 Y-66.689 E0.1381
G1 X80.620 Y67.791 E2.0128
G1 X-81.541 Y68.608 E2.4271
G1 X-82.218 Y-65.872 E2.0128
G1 X-59.993 Y-65.984 E0.3327
G1 X-59.446 Y42.603 E1.6253
G1 X-58.915 Y44.710 E0.0325
G1 X-57.403 Y46.400 E0.0339
G1 X-54.835 Y47.186 E0.0402
; outer perimeter
G1 X-54.776 Y46.786 F4200
G1 X66.630 Y46.175 E1.8171 F900
G1 X68.595 Y45.680 E0.0303
G1 X70.128 Y44.308 E0.0308
G1 X70.864 Y41.905 E0.0376
G1 X70.315 Y-67.040 E1.6306
G1 X80.341 Y-67.091 E0.1501
G1 X81.022 Y68.189 E2.0248
G1 X-81.939 Y69.010 E2.4391
G1 X-82.620 Y-66.270 E2.0248
G1 X-59.595 Y-66.386 E0.3446
G1 X-59.046 Y42.553 E1.6305
G1 X-58.551 Y44.517 E0.0303
G1 X-57.179 Y46.051 E0.0308
G1 X-54.776 Y46.786 E0.0376
; inner perimeter
G1 X-45.810 Y54.192 F4200
G1 X-46.041 Y54.474 E0.0054 F1350
G1 X-46.155 Y54.684 E0.0036
G1 X-46.265 Y55.032 E0.0055
G1 X-46.291 Y55.247 E0.0033
G1 X-46.239 Y65.470 E0.1530
G1 X-46.165 Y65.846 E0.0057
G1 X-45.992 Y66.208 E0.0060
G1 X-45.734 Y66.516 E0.0060
G1 X-45.408 Y66.750 E0.0060
G1 X-45.034 Y66.897 E0.0060
G1 X-44.671 Y66.940 E0.0055
G1 X-38.597 Y66.910 E0.0909
G1 X-38.254 Y66.865 E0.0052
G1 X-38.027 Y66.790 E0.0036
G1 X-37.709 Y66.612 E0.0054
G1 X-37.524 Y66.458 E0.0036
G1 X-37.282 Y66.161 E0.0057
G1 X-37.113 Y65.796 E0.0060
G1 X-37.043 Y65.422 E0.0057
G1 X-37.095 Y55.180 E0.1533
G1 X-37.170 Y54.804 E0.0057
G1 X-37.343 Y54.442 E0.0060
G1 X-37.588 Y54.149 E0.0057
G1 X-37.772 Y53.998 E0.0036
G1 X-38.109 Y53.815 E0.0057
G1 X-38.499 Y53.717 E0.0060
G1 X-44.737 Y53.740 E0.0934
G1 X-45.080 Y53.785 E0.0052
G1 X-45.308 Y53.861 E0.0036
G1 X-45.626 Y54.038 E0.0055
G1 X-45.810 Y54.192 E0.0036
; outer perimeter
G1 X-45.525 Y54.475 F4200
G1 X-45.707 Y54.698 E0.0043 F900
G1 X-45.785 Y54.842 E0.0024
G1 X-45.872 Y55.117 E0.0043
G1 X-45.891 Y55.271 E0.0023
G1 X-45.839 Y65.430 E0.1521
G1 X-45.782 Y65.719 E0.0044
G1 X-45.652 Y65.990 E0.0045
G1 X-45.460 Y66.220 E0.0045
G1 X-45.216 Y66.396 E0.0045
G1 X-44.935 Y66.506 E0.0045
G1 X-44.648 Y66.540 E0.0043
G1 X-38.624 Y66.510 E0.0902
G1 X-38.344 Y66.473 E0.0042
G1 X-38.188 Y66.422 E0.0025
G1 X-37.936 Y66.281 E0.0043
G1 X-37.810 Y66.176 E0.0025
G1 X-37.624 Y65.947 E0.0044
G1 X-37.497 Y65.674 E0.0045
G1 X-37.444 Y65.386 E0.0044
G1 X-37.495 Y55.221 E0.1521
G1 X-37.552 Y54.931 E0.0044
G1 X-37.682 Y54.660 E0.0045
G1 X-37.870 Y54.435 E0.0044
G1 X-37.997 Y54.331 E0.0024
G1 X-38.256 Y54.190 E0.0044
G1 X-38.548 Y54.117 E0.0045
G1 X-44.711 Y54.140 E0.0922
G1 X-44.991 Y54.177 E0.0042
G1 X-45.146 Y54.228 E0.0024
G1 X-45.398 Y54.369 E0.0043
G1 X-45.525 Y54.475 E0.0025
G1 E-1.0000 F1200
; inner perimeter
G1 X-22.458 Y55.127 F4200
G1 E1.0000 F1200
G1 X-22.406 Y65.350 E0.1530 F1350
G1 X-22.332 Y65.726 E0.0057
G1 X-22.159 Y66.088 E0.0060
G1 X-21.901 Y66.396 E0.0060
G1 X-21.574 Y66.630 E0.0060
G1 X-21.200 Y66.777 E0.0060
G1 X-20.838 Y66.820 E0.0055
G1 X-14.763 Y66.790 E0.0909
G1 X-14.419 Y66.745 E0.0052
G1 X-14.194 Y66.670 E0.0036
G1 X-13.875 Y66.492 E0.0055
G1 X-13.691 Y66.338 E0.0036
G1 X-13.449 Y66.041 E0.0057
G1 X-13.280 Y65.676 E0.0060
G1 X-13.210 Y65.302 E0.0057
G1 X-13.262 Y55.060 E0.1533
G1 X-13.337 Y54.684 E0.0057
G1 X-13.510 Y54.322 E0.0060
G1 X-13.755 Y54.029 E0.0057
G1 X-13.939 Y53.878 E0.0036
G1 X-14.276 Y53.695 E0.0057
G1 X-14.666 Y53.597 E0.0060
G1 X-20.904 Y53.620 E0.0934
G1 X-21.247 Y53.665 E0.0052
G1 X-21.475 Y53.740 E0.0036
G1 X-21.793 Y53.918 E0.0054
G1 X-21.977 Y54.072 E0.0036
G1 X-22.208 Y54.354 E0.0054
G1 X-22.322 Y54.565 E0.0036
G1 X-22.432 Y54.911 E0.0054
G1 X-22.458 Y55.127 E0.0033
; outer perimeter
G1 X-22.058 Y55.151 F4200
G1 X-22.006 Y65.310 E0.1521 F900
G1 X-21.949 Y65.599 E0.0044
G1 X-21.819 Y65.870 E0.0045
G1 X-21.627 Y66.100 E0.0045
G1 X-21.381 Y66.276 E0.0045
G1 X-21.102 Y66.386 E0.0045
G1 X-20.815 Y66.420 E0.0043
G1 X-14.790 Y66.390 E0.0902
G1 X-14.509 Y66.353 E0.0042
G1 X-14.355 Y66.302 E0.0024
G1 X-14.103 Y66.161 E0.0043
G1 X-13.977 Y66.056 E0.0025
G1 X-13.790 Y65.827 E0.0044
G1 X-13.664 Y65.554 E0.0045
G1 X-13.611 Y65.266 E0.0044
G1 X-13.662 Y55.100 E0.1521
G1 X-13.719 Y54.811 E0.0044
G1 X-13.849 Y54.540 E0.0045
G1 X-14.037 Y54.315 E0.0044
G1 X-14.164 Y54.211 E0.0024
G1 X-14.423 Y54.070 E0.0044
G1 X-14.715 Y53.997 E0.0045
G1 X-20.878 Y54.020 E0.0922
G1 X-21.158 Y54.057 E0.0042
G1 X-21.313 Y54.108 E0.0025
G1 X-21.565 Y54.249 E0.0043
G1 X-21.691 Y54.355 E0.0025
G1 X-21.874 Y54.578 E0.0043
G1 X-21.952 Y54.722 E0.0024
G1 X-22.039 Y54.997 E0.0043
G1 X-22.058 Y55.151 E0.0023
G1 E-1.0000 F1200
; inner perimeter
G1 X1.375 Y54.988 F4200
G1 E1.0000 F1200
G1 X1.427 Y65.230 E0.1533 F1350
G1 X1.501 Y65.606 E0.0057
G1 X1.675 Y65.969 E0.0060
G1 X1.932 Y66.276 E0.0060
G1 X2.258 Y66.510 E0.0060
G1 X2.632 Y66.657 E0.0060
G1 X2.995 Y66.700 E0.0055
G1 X9.069 Y66.670 E0.0909
G1 X9.412 Y66.625 E0.0052
G1 X9.639 Y66.550 E0.0036
G1 X9.958 Y66.372 E0.0055
G1 X10.142 Y66.218 E0.0036
G1 X10.384 Y65.921 E0.0057
G1 X10.553 Y65.556 E0.0060
G1 X10.623 Y65.181 E0.0057
G1 X10.571 Y54.940 E0.1533
G1 X10.496 Y54.564 E0.0057
G1 X10.323 Y54.202 E0.0060
