; G-Code generated by Simplify3D(R) Version 4.0.1
; Aug 16, 2018 at 10:01:18 PM
; Settings Summary
;   processName,Process1
;   applyToModels,front_frame_left
;   profileName,Qidi Technology Qidi Tech I
;   profileVersion,2016-08-03 08:00:00
;   baseProfile,
;   printMaterial,PLA
;   printQuality,Medium
;   printExtruders,Left Extruder Only
;   extruderName,Right Extruder,Left Extruder
;   extruderToolheadNumber,0,1
;   extruderDiameter,0.4,0.4
;   extruderAutoWidth,0,0
;   extruderWidth,0.4,0.4
;   extrusionMultiplier,0.9,0.9
;   extruderUseRetract,1,1
;   extruderRetractionDistance,1,1
;   extruderExtraRestartDistance,0,0
;   extruderRetractionZLift,0,0
;   extruderRetractionSpeed,1200,1200
;   extruderUseCoasting,0,0
;   extruderCoastingDistance,0.2,0.2
;   extruderUseWipe,0,0
;   extruderWipeDistance,5,5
;   primaryExtruder,1
;   layerHeight,0.2
;   topSolidLayers,3
;   bottomSolidLayers,3
;   perimeterOutlines,2
;   printPerimetersInsideOut,1
;   startPointOption,2
;   startPointOriginX,0
;   startPointOriginY,0
;   sequentialIslands,0
;   spiralVaseMode,0
;   firstLayerHeightPercentage,90
;   firstLayerWidthPercentage,100
;   firstLayerUnderspeed,0.5
;   useRaft,0
;   raftExtruder,1
;   raftTopLayers,3
;   raftBaseLayers,2
;   raftOffset,3
;   raftSeparationDistance,0.14
;   raftTopInfill,100
;   aboveRaftSpeedMultiplier,0.3
;   useSkirt,1
;   skirtExtruder,1
;   skirtLayers,1
;   skirtOutlines,2
;   skirtOffset,4
;   usePrimePillar,0
;   primePillarExtruder,999
;   primePillarWidth,12
;   primePillarLocation,7
;   primePillarSpeedMultiplier,1
;   useOozeShield,0
;   oozeShieldExtruder,999
;   oozeShieldOffset,2
;   oozeShieldOutlines,1
;   oozeShieldSidewallShape,1
;   oozeShieldSidewallAngle,30
;   oozeShieldSpeedMultiplier,1
;   infillExtruder,1
;   internalInfillPattern,Rectilinear
;   externalInfillPattern,Rectilinear
;   infillPercentage,25
;   outlineOverlapPercentage,20
;   infillExtrusionWidthPercentage,100
;   minInfillLength,5
;   infillLayerInterval,1
;   internalInfillAngles,45,-45
;   overlapInternalInfillAngles,0
;   externalInfillAngles,45,-45
;   generateSupport,0
;   supportExtruder,1
;   supportInfillPercentage,30
;   supportExtraInflation,0
;   supportBaseLayers,0
;   denseSupportExtruder,1
;   denseSupportLayers,0
;   denseSupportInfillPercentage,70
;   supportLayerInterval,1
;   supportHorizontalPartOffset,0.3
;   supportUpperSeparationLayers,1
;   supportLowerSeparationLayers,1
;   supportType,0
;   supportGridSpacing,4
;   maxOverhangAngle,45
;   supportAngles,0
;   temperatureName,Right Extruder,Left Extruder,Heated Build Platform
;   temperatureNumber,0,1,0
;   temperatureSetpointCount,1,1,1
;   temperatureSetpointLayers,1,1,1
;   temperatureSetpointTemperatures,0,215,55
;   temperatureStabilizeAtStartup,0,0,0
;   temperatureHeatedBed,0,0,1
;   temperatureRelayBetweenLayers,0,0,0
;   temperatureRelayBetweenLoops,0,0,0
;   fanLayers,1,2
;   fanSpeeds,0,100
;   blipFanToFullPower,0
;   adjustSpeedForCooling,1
;   minSpeedLayerTime,15
;   minCoolingSpeedSlowdown,20
;   increaseFanForCooling,0
;   minFanLayerTime,45
;   maxCoolingFanSpeed,100
;   increaseFanForBridging,1
;   bridgingFanSpeed,100
;   use5D,1
;   relativeEdistances,1
;   allowEaxisZeroing,0
;   independentExtruderAxes,1
;   includeM10123,0
;   stickySupport,1
;   applyToolheadOffsets,0
;   gcodeXoffset,0
;   gcodeYoffset,0
;   gcodeZoffset,0
;   overrideMachineDefinition,1
;   machineTypeOverride,0
;   strokeXoverride,225
;   strokeYoverride,145
;   strokeZoverride,150
;   originOffsetXoverride,112.5
;   originOffsetYoverride,72.5
;   originOffsetZoverride,0
;   homeXdirOverride,1
;   homeYdirOverride,1
;   homeZdirOverride,-1
;   flipXoverride,1
;   flipYoverride,-1
;   flipZoverride,1
;   toolheadOffsets,0,0|34,0|0,0|0,0|0,0|0,0
;   overrideFirmwareConfiguration,1
;   firmwareTypeOverride,MakerBot/Sailfish Firmware
;   GPXconfigOverride,r1d
;   baudRateOverride,115200
;   overridePrinterModels,1
;   printerModelsOverride,MakerBot_Replicator1.stl
;   startingGcode,M73 P0 ; Enable build progress,G162 X Y F3000 ; Home XY maximum,G161 Z F1200 ; Home Z minimum,G92 X0 Y0 Z-5 A0 B0 ; Set Z to -5,G1 Z0 ; Move Z to 0,G161 Z F100 ; Home Z slowly,M132 X Y Z ; Recall home offsets,M135 T0 ; Load right extruder offsets,G1 X-110 Y-70 Z30 F9000 ; Move to wait position off table,G130 X20 Y20 Z20 A20 B20 ; Lower stepper Vrefs while heating,M126 S[fan_speed_pwm] ; Set fan speed,M140 S[bed0_temperature] T0 ; Heat buildplate ,M134 T0 ; Stabilize bed temperature,M104 S[extruder1_temperature] T1 ; Heat left extruder,M133 T1 ; Stabilize left extruder temperature,G130 X127 Y127 Z40 A127 B127 ; Default stepper Vrefs,G92 A0 B0 ; Zero extruders,M135 T1 ; Load left extruder offsets,G1 X-100 Y-78 F9000 ; Move to front left corner of bed,G1 Z0.3 F6000 ; Move down to purge,G1 X90 Y-78 E24 F2000 ; Extrude a line of filament across the front edge of the bed,G1 X100 Y-78 F180 ; Wait for ooze,G1 X110 Y-78 F5000 ; Fast wipe,G1 Z1 F100 ; Lift,G92 A0 B0 ; Zero extruders,M73 P1 ; @body (notify GPX body has started)
;   layerChangeGcode,
;   retractionGcode,
;   toolChangeGcode,
;   endingGcode,M73 P100 ; end build progress,G1 Z150 F1000 ; send Z axis to bottom of machine,M140 S0 T0 ; cool down HBP,M104 S0 T0 ; cool down right extruder,M104 S0 T1 ; cool down left extruder,M127 ; stop blower fan,G162 X Y F3000 ; home XY maximum,M18 ; disable stepper,M72 P1 ; play Ta-Da song
;   exportFileFormat,x3g
;   celebration,0
;   celebrationSong,Random Song
;   postProcessing,
;   defaultSpeed,3600
;   outlineUnderspeed,0.5
;   solidInfillUnderspeed,0.8
;   supportUnderspeed,0.8
;   rapidXYspeed,4200
;   rapidZspeed,1200
;   minBridgingArea,50
;   bridgingExtraInflation,0
;   bridgingExtrusionMultiplier,1
;   bridgingSpeedMultiplier,0.8
;   useFixedBridgingAngle,0
;   fixedBridgingAngle,0
;   applyBridgingToPerimeters,0
;   filamentDiameters,1.75|1.75|1.75|1.75|1.75|1.75
;   filamentPricesPerKg,46|46|46|46|46|46
;   filamentDensities,1.25|1.25|1.25|1.25|1.25|1.25
;   useMinPrintHeight,0
;   minPrintHeight,0
;   useMaxPrintHeight,0
;   maxPrintHeight,0
;   useDiaphragm,0
;   diaphragmLayerInterval,20
;   robustSlicing,1
;   mergeAllIntoSolid,0
;   onlyRetractWhenCrossingOutline,1
;   retractBetweenLayers,1
;   useRetractionMinTravel,0
;   retractionMinTravel,3
;   retractWhileWiping,0
;   onlyWipeOutlines,1
;   avoidCrossingOutline,0
;   maxMovementDetourFactor,3
;   toolChangeRetractionDistance,12
;   toolChangeExtraRestartDistance,-0.5
;   toolChangeRetractionSpeed,600
;   externalThinWallType,0
;   internalThinWallType,2
;   thinWallAllowedOverlapPercentage,10
;   singleExtrusionMinLength,1
;   singleExtrusionMinPrintingWidthPercentage,50
;   singleExtrusionMaxPrintingWidthPercentage,200
;   singleExtrusionEndpointExtension,0.2
;   horizontalSizeCompensation,0
G90
M83
M73 P0 ; Enable build progress
G162 X Y F3000 ; Home XY maximum
G161 Z F1200 ; Home Z minimum
G92 X0 Y0 Z-5 A0 B0 ; Set Z to -5
G1 Z0 ; Move Z to 0
G161 Z F100 ; Home Z slowly
M132 X Y Z ; Recall home offsets
M135 T0 ; Load right extruder offsets
G1 X-110 Y-70 Z30 F9000 ; Move to wait position off table
G130 X20 Y20 Z20 A20 B20 ; Lower stepper Vrefs while heating
M127 ; Set fan speed
M140 S55 T0 ; Heat buildplate 
M134 T0 ; Stabilize bed temperature
M104 S215 T1 ; Heat left extruder
M133 T1 ; Stabilize left extruder temperature
G130 X127 Y127 Z40 A127 B127 ; Default stepper Vrefs
G92 A0 B0 ; Zero extruders
M135 T1 ; Load left extruder offsets
G1 X-100 Y-78 F9000 ; Move to front left corner of bed
G1 Z0.3 F6000 ; Move down to purge
G1 X90 Y-78 E24 F2000 ; Extrude a line of filament across the front edge of the bed
G1 X100 Y-78 F180 ; Wait for ooze
G1 X110 Y-78 F5000 ; Fast wipe
G1 Z1 F100 ; Lift
G92 A0 B0 ; Zero extruders
M73 P1 ; @body (notify GPX body has started)
G1 E-1.0000 F1200
G1 Z0.180 F1200
; process Process1
; layer 1, Z = 0.180
M135 T1
; tool H0.200 W0.400
; skirt
G1 X52.137 Y40.889 F4200
G1 E1.0000 F360
G1 X52.278 Y-71.318 E3.3588 F1800
G1 X52.370 Y-71.538 E0.0071
G1 X54.885 Y-74.047 E0.1063
G1 X55.105 Y-74.138 E0.0071
G1 X82.113 Y-74.104 E0.8085
G1 X82.333 Y-74.013 E0.0071
G1 X84.842 Y-71.497 E0.1063
G1 X84.933 Y-71.277 E0.0071
G1 X84.756 Y69.972 E4.2282
G1 X84.665 Y70.193 E0.0071
G1 X82.150 Y72.702 E0.1063
G1 X81.929 Y72.793 E0.0071
G1 X-85.017 Y72.583 E4.9974
G1 X-85.237 Y72.492 E0.0071
G1 X-87.746 Y69.977 E0.1063
G1 X-87.837 Y69.756 E0.0071
G1 X-87.660 Y-71.493 E4.2282
G1 X-87.568 Y-71.714 E0.0071
G1 X-85.053 Y-74.222 E0.1063
G1 X-84.833 Y-74.313 E0.0071
G1 X-70.825 Y-74.296 E0.4193
G1 X-70.604 Y-74.204 E0.0071
G1 X-68.096 Y-71.689 E0.1063
G1 X-68.005 Y-71.469 E0.0071
G1 X-68.145 Y40.861 E3.3625
G1 X-67.967 Y40.917 E0.0056
G1 X52.082 Y41.067 E3.5936
G1 X52.137 Y40.889 E0.0056
G1 X52.537 Y40.951 F4200
G1 X52.678 Y-71.238 E3.3583 F1800
G1 X52.708 Y-71.311 E0.0024
G1 X55.111 Y-73.708 E0.1016
G1 X55.184 Y-73.738 E0.0024
G1 X82.033 Y-73.704 E0.8037
G1 X82.106 Y-73.674 E0.0024
G1 X84.503 Y-71.271 E0.1016
G1 X84.533 Y-71.198 E0.0024
G1 X84.356 Y69.892 E4.2234
G1 X84.326 Y69.966 E0.0024
G1 X81.923 Y72.362 E0.1016
G1 X81.850 Y72.393 E0.0024
G1 X-84.937 Y72.183 E4.9926
G1 X-85.010 Y72.153 E0.0024
G1 X-87.406 Y69.750 E0.1016
G1 X-87.437 Y69.677 E0.0024
G1 X-87.260 Y-71.413 E4.2234
G1 X-87.229 Y-71.487 E0.0024
G1 X-84.827 Y-73.883 E0.1016
G1 X-84.753 Y-73.913 E0.0024
G1 X-70.905 Y-73.896 E0.4145
G1 X-70.831 Y-73.865 E0.0024
G1 X-68.435 Y-71.463 E0.1016
G1 X-68.405 Y-71.389 E0.0024
G1 X-68.546 Y40.928 E3.3621
G1 X-68.485 Y41.174 E0.0076
G1 X-68.029 Y41.317 E0.0143
G1 X52.149 Y41.467 E3.5974
G1 X52.394 Y41.407 E0.0076
G1 X52.537 Y40.951 E0.0143
G1 E-1.0000 F1200
; inner perimeter
G1 X57.336 Y41.687 F4200
G1 E1.0000 F1200
G1 X57.475 Y-68.935 E3.3114 F1350
G1 X79.730 Y-68.907 E0.6662
G1 X79.559 Y67.590 E4.0859
G1 X-82.634 Y67.386 E4.8551
G1 X-82.463 Y-69.110 E4.0859
G1 X-73.208 Y-69.099 E0.2770
G1 X-73.346 Y41.505 E3.3108
G1 X-72.829 Y43.615 E0.0650
G1 X-71.328 Y45.314 E0.0679
G1 X-68.765 Y46.116 E0.0804
G1 X52.725 Y46.268 E3.6367
G1 X54.836 Y45.751 E0.0650
G1 X56.534 Y44.250 E0.0679
G1 X57.336 Y41.687 E0.0804
; outer perimeter
G1 X56.936 Y41.626 F4200
G1 X57.076 Y-69.336 E3.3215 F900
G1 X80.131 Y-69.307 E0.6901
G1 X79.959 Y67.990 E4.1099
G1 X-83.034 Y67.786 E4.8791
G1 X-82.862 Y-69.511 E4.1099
G1 X-72.807 Y-69.498 E0.3010
G1 X-72.946 Y41.457 E3.3213
G1 X-72.464 Y43.424 E0.0606
G1 X-71.102 Y44.966 E0.0616
G1 X-68.704 Y45.716 E0.0752
G1 X52.677 Y45.868 E3.6334
G1 X54.645 Y45.386 E0.0606
G1 X56.186 Y44.024 E0.0616
G1 X56.936 Y41.626 E0.0752
G1 E-1.0000 F1200
; inner perimeter
G1 X43.883 Y53.426 F4200
G1 E1.0000 F1200
G1 X43.594 Y53.152 E0.0119 F1350
G1 X43.242 Y52.957 E0.0120
G1 X42.852 Y52.855 E0.0121
G1 X36.629 Y52.839 E0.1863
G1 X36.432 Y52.851 E0.0059
G1 X36.061 Y52.944 E0.0114
G1 X35.724 Y53.128 E0.0115
G1 X35.540 Y53.279 E0.0071
G1 X35.304 Y53.562 E0.0110
G1 X35.198 Y53.755 E0.0066
G1 X35.116 Y53.960 E0.0066
G1 X35.048 Y54.317 E0.0109
G1 X35.035 Y64.557 E0.3065
G1 X35.106 Y64.933 E0.0115
G1 X35.277 Y65.297 E0.0120
G1 X35.533 Y65.608 E0.0120
G1 X35.855 Y65.841 E0.0119
G1 X36.227 Y65.992 E0.0120
G1 X36.590 Y66.039 E0.0109
G1 X42.668 Y66.046 E0.1819
G1 X43.027 Y66.002 E0.0108
G1 X43.401 Y65.855 E0.0120
G1 X43.727 Y65.621 E0.0120
G1 X43.987 Y65.309 E0.0122
G1 X44.159 Y64.944 E0.0121
G1 X44.231 Y64.568 E0.0115
G1 X44.244 Y54.329 E0.3065
G1 X44.176 Y53.971 E0.0109
G1 X44.088 Y53.748 E0.0072
G1 X43.883 Y53.426 E0.0114
; outer perimeter
G1 X43.572 Y53.682 F4200
G1 X43.356 Y53.477 E0.0089 F900
G1 X43.092 Y53.331 E0.0090
G1 X42.801 Y53.255 E0.0090
G1 X36.641 Y53.239 E0.1844
G1 X36.494 Y53.248 E0.0044
G1 X36.208 Y53.320 E0.0088
G1 X35.949 Y53.461 E0.0088
G1 X35.823 Y53.565 E0.0049
G1 X35.636 Y53.788 E0.0087
G1 X35.560 Y53.926 E0.0047
G1 X35.502 Y54.072 E0.0047
G1 X35.448 Y54.355 E0.0086
G1 X35.435 Y64.519 E0.3042
G1 X35.490 Y64.809 E0.0088
G1 X35.618 Y65.082 E0.0090
G1 X35.810 Y65.314 E0.0090
G1 X36.050 Y65.489 E0.0089
G1 X36.330 Y65.602 E0.0090
G1 X36.616 Y65.639 E0.0087
G1 X42.644 Y65.646 E0.1804
G1 X42.928 Y65.612 E0.0086
G1 X43.208 Y65.501 E0.0090
G1 X43.452 Y65.326 E0.0090
G1 X43.647 Y65.092 E0.0091
G1 X43.775 Y64.819 E0.0090
G1 X43.831 Y64.530 E0.0088
G1 X43.844 Y54.366 E0.3042
G1 X43.790 Y54.083 E0.0086
G1 X43.730 Y53.931 E0.0049
G1 X43.572 Y53.682 E0.0088
G1 E-1.0000 F1200
; inner perimeter
G1 X20.411 Y54.299 F4200
G1 E1.0000 F1200
G1 X20.343 Y53.941 E0.0109 F1350
G1 X20.255 Y53.718 E0.0072
G1 X20.050 Y53.396 E0.0114
G1 X19.761 Y53.122 E0.0119
G1 X19.406 Y52.925 E0.0122
G1 X19.019 Y52.825 E0.0120
G1 X12.796 Y52.809 E0.1863
G1 X12.598 Y52.821 E0.0059
G1 X12.224 Y52.915 E0.0115
G1 X11.891 Y53.098 E0.0114
G1 X11.706 Y53.250 E0.0071
G1 X11.471 Y53.532 E0.0110
G1 X11.364 Y53.725 E0.0066
G1 X11.283 Y53.930 E0.0066
G1 X11.214 Y54.287 E0.0109
G1 X11.202 Y64.527 E0.3065
G1 X11.273 Y64.903 E0.0115
G1 X11.444 Y65.267 E0.0120
G1 X11.700 Y65.578 E0.0120
G1 X12.021 Y65.812 E0.0119
G1 X12.394 Y65.962 E0.0120
G1 X12.757 Y66.009 E0.0109
G1 X18.835 Y66.017 E0.1819
G1 X19.193 Y65.973 E0.0108
G1 X19.567 Y65.825 E0.0120
G1 X19.893 Y65.591 E0.0120
G1 X20.153 Y65.279 E0.0122
G1 X20.325 Y64.914 E0.0121
G1 X20.398 Y64.538 E0.0115
G1 X20.411 Y54.299 E0.3065
; outer perimeter
G1 X20.011 Y54.336 F4200
G1 X19.957 Y54.053 E0.0086 F900
G1 X19.897 Y53.901 E0.0049
G1 X19.739 Y53.652 E0.0088
G1 X19.522 Y53.447 E0.0089
G1 X19.256 Y53.300 E0.0091
G1 X18.967 Y53.225 E0.0089
G1 X12.808 Y53.209 E0.1844
G1 X12.660 Y53.218 E0.0044
G1 X12.372 Y53.291 E0.0089
G1 X12.115 Y53.431 E0.0087
G1 X11.989 Y53.535 E0.0049
G1 X11.803 Y53.759 E0.0087
G1 X11.727 Y53.896 E0.0047
G1 X11.669 Y54.043 E0.0047
G1 X11.614 Y54.326 E0.0086
G1 X11.602 Y64.489 E0.3042
G1 X11.657 Y64.779 E0.0088
G1 X11.784 Y65.052 E0.0090
G1 X11.976 Y65.284 E0.0090
G1 X12.217 Y65.459 E0.0089
G1 X12.496 Y65.572 E0.0090
G1 X12.783 Y65.609 E0.0087
G1 X18.811 Y65.617 E0.1804
G1 X19.094 Y65.582 E0.0086
G1 X19.374 Y65.471 E0.0090
G1 X19.619 Y65.296 E0.0090
G1 X19.814 Y65.062 E0.0091
G1 X19.942 Y64.789 E0.0090
G1 X19.998 Y64.500 E0.0088
G1 X20.011 Y54.336 E0.3042
G1 E-1.0000 F1200
; inner perimeter
G1 X-3.423 Y54.269 F4200
G1 E1.0000 F1200
G1 X-3.491 Y53.912 E0.0109 F1350
G1 X-3.578 Y53.689 E0.0072
G1 X-3.783 Y53.366 E0.0114
G1 X-4.073 Y53.092 E0.0119
G1 X-4.424 Y52.897 E0.0120
G1 X-4.814 Y52.796 E0.0121
G1 X-11.038 Y52.779 E0.1863
G1 X-11.235 Y52.791 E0.0059
G1 X-11.605 Y52.884 E0.0114
G1 X-11.942 Y53.068 E0.0115
G1 X-12.127 Y53.220 E0.0071
G1 X-12.362 Y53.502 E0.0110
G1 X-12.469 Y53.695 E0.0066
G1 X-12.550 Y53.900 E0.0066
G1 X-12.619 Y54.257 E0.0109
G1 X-12.632 Y64.497 E0.3065
G1 X-12.560 Y64.873 E0.0115
G1 X-12.390 Y65.237 E0.0120
G1 X-12.133 Y65.548 E0.0120
G1 X-11.812 Y65.782 E0.0119
G1 X-11.439 Y65.932 E0.0120
G1 X-11.076 Y65.979 E0.0109
G1 X-4.998 Y65.987 E0.1819
G1 X-4.640 Y65.943 E0.0108
G1 X-4.266 Y65.795 E0.0120
G1 X-3.940 Y65.561 E0.0120
G1 X-3.680 Y65.249 E0.0122
G1 X-3.508 Y64.884 E0.0121
G1 X-3.436 Y64.508 E0.0115
G1 X-3.423 Y54.269 E0.3065
; outer perimeter
G1 X-3.823 Y54.306 F4200
G1 X-3.876 Y54.023 E0.0086 F900
G1 X-3.936 Y53.871 E0.0049
G1 X-4.094 Y53.622 E0.0088
G1 X-4.311 Y53.418 E0.0089
G1 X-4.574 Y53.271 E0.0090
G1 X-4.866 Y53.195 E0.0090
G1 X-11.026 Y53.179 E0.1844
G1 X-11.173 Y53.188 E0.0044
G1 X-11.459 Y53.260 E0.0088
G1 X-11.718 Y53.401 E0.0088
G1 X-11.844 Y53.505 E0.0049
G1 X-12.030 Y53.729 E0.0087
G1 X-12.106 Y53.866 E0.0047
G1 X-12.164 Y54.013 E0.0047
G1 X-12.219 Y54.296 E0.0086
G1 X-12.232 Y64.460 E0.3042
G1 X-12.177 Y64.749 E0.0088
G1 X-12.049 Y65.022 E0.0090
G1 X-11.857 Y65.254 E0.0090
G1 X-11.616 Y65.429 E0.0089
G1 X-11.337 Y65.542 E0.0090
G1 X-11.050 Y65.579 E0.0087
G1 X-5.023 Y65.587 E0.1804
G1 X-4.739 Y65.552 E0.0085
G1 X-4.459 Y65.441 E0.0090
G1 X-4.215 Y65.266 E0.0090
G1 X-4.020 Y65.032 E0.0091
G1 X-3.891 Y64.759 E0.0090
G1 X-3.836 Y64.470 E0.0088
G1 X-3.823 Y54.306 E0.3042
G1 E-1.0000 F1200
; inner perimeter
G1 X-27.256 Y54.239 F4200
G1 E1.0000 F1200
G1 X-27.324 Y53.882 E0.0109 F1350
G1 X-27.412 Y53.659 E0.0072
