; G-Code generated by Simplify3D(R) Version 4.0.1
; Aug 16, 2018 at 10:05:29 PM
; Settings Summary
;   processName,Process1
;   applyToModels,front_frame_right
;   profileName,Qidi Technology Qidi Tech I (modified)
;   profileVersion,2016-08-03 08:00:00
;   baseProfile,
;   printMaterial,PLA
;   printQuality,Medium
;   printExtruders,Both Extruders
;   extruderName,Right Extruder,Left Extruder
;   extruderToolheadNumber,0,1
;   extruderDiameter,0.4,0.4
;   extruderAutoWidth,0,0
;   extruderWidth,0.4,0.4
;   extrusionMultiplier,0.9,0.9
;   extruderUseRetract,1,1
;   extruderRetractionDistance,1,1
;   extruderExtraRestartDistance,0,0
;   extruderRetractionZLift,0,0
;   extruderRetractionSpeed,1200,1200
;   extruderUseCoasting,0,0
;   extruderCoastingDistance,0.2,0.2
;   extruderUseWipe,0,0
;   extruderWipeDistance,5,5
;   primaryExtruder,1
;   layerHeight,0.2
;   topSolidLayers,3
;   bottomSolidLayers,3
;   perimeterOutlines,2
;   printPerimetersInsideOut,1
;   startPointOption,2
;   startPointOriginX,0
;   startPointOriginY,0
;   sequentialIslands,0
;   spiralVaseMode,0
;   firstLayerHeightPercentage,90
;   firstLayerWidthPercentage,100
;   firstLayerUnderspeed,0.5
;   useRaft,0
;   raftExtruder,0
;   raftTopLayers,3
;   raftBaseLayers,2
;   raftOffset,3
;   raftSeparationDistance,0.14
;   raftTopInfill,100
;   aboveRaftSpeedMultiplier,0.3
;   useSkirt,0
;   skirtExtruder,0
;   skirtLayers,1
;   skirtOutlines,2
;   skirtOffset,4
;   usePrimePillar,0
;   primePillarExtruder,999
;   primePillarWidth,12
;   primePillarLocation,7
;   primePillarSpeedMultiplier,1
;   useOozeShield,1
;   oozeShieldExtruder,999
;   oozeShieldOffset,2
;   oozeShieldOutlines,1
;   oozeShieldSidewallShape,1
;   oozeShieldSidewallAngle,30
;   oozeShieldSpeedMultiplier,1
;   infillExtruder,1
;   internalInfillPattern,Rectilinear
;   externalInfillPattern,Rectilinear
;   infillPercentage,25
;   outlineOverlapPercentage,20
;   infillExtrusionWidthPercentage,100
;   minInfillLength,5
;   infillLayerInterval,1
;   internalInfillAngles,45,-45
;   overlapInternalInfillAngles,0
;   externalInfillAngles,45,-45
;   generateSupport,1
;   supportExtruder,0
;   supportInfillPercentage,30
;   supportExtraInflation,0
;   supportBaseLayers,0
;   denseSupportExtruder,0
;   denseSupportLayers,0
;   denseSupportInfillPercentage,70
;   supportLayerInterval,1
;   supportHorizontalPartOffset,0.3
;   supportUpperSeparationLayers,1
;   supportLowerSeparationLayers,1
;   supportType,0
;   supportGridSpacing,4
;   maxOverhangAngle,45
;   supportAngles,0
;   temperatureName,Right Extruder,Left Extruder,Heated Build Platform
;   temperatureNumber,0,1,0
;   temperatureSetpointCount,1,1,1
;   temperatureSetpointLayers,1,1,1
;   temperatureSetpointTemperatures,215,215,55
;   temperatureStabilizeAtStartup,0,0,0
;   temperatureHeatedBed,0,0,1
;   temperatureRelayBetweenLayers,0,0,0
;   temperatureRelayBetweenLoops,0,0,0
;   fanLayers,1,2
;   fanSpeeds,0,100
;   blipFanToFullPower,0
;   adjustSpeedForCooling,1
;   minSpeedLayerTime,15
;   minCoolingSpeedSlowdown,20
;   increaseFanForCooling,0
;   minFanLayerTime,45
;   maxCoolingFanSpeed,100
;   increaseFanForBridging,1
;   bridgingFanSpeed,100
;   use5D,1
;   relativeEdistances,1
;   allowEaxisZeroing,0
;   independentExtruderAxes,1
;   includeM10123,0
;   stickySupport,1
;   applyToolheadOffsets,0
;   gcodeXoffset,0
;   gcodeYoffset,0
;   gcodeZoffset,0
;   overrideMachineDefinition,1
;   machineTypeOverride,0
;   strokeXoverride,225
;   strokeYoverride,145
;   strokeZoverride,150
;   originOffsetXoverride,112.5
;   originOffsetYoverride,72.5
;   originOffsetZoverride,0
;   homeXdirOverride,1
;   homeYdirOverride,1
;   homeZdirOverride,-1
;   flipXoverride,1
;   flipYoverride,-1
;   flipZoverride,1
;   toolheadOffsets,0,0|34,0|0,0|0,0|0,0|0,0
;   overrideFirmwareConfiguration,1
;   firmwareTypeOverride,MakerBot/Sailfish Firmware
;   GPXconfigOverride,r1d
;   baudRateOverride,115200
;   overridePrinterModels,1
;   printerModelsOverride,MakerBot_Replicator1.stl
;   startingGcode,M73 P0 ; Enable build progress,G162 X Y F3000 ; Home XY maximum,G161 Z F1200 ; Home Z minimum,G92 X0 Y0 Z-5 A0 B0 ; Set Z to -5,G1 Z0 ; Move Z to 0,G161 Z F100 ; Home Z slowly,M132 X Y Z A B ; Recall home offsets,M135 T0 ; Load right extruder offsets,G1 X-110 Y-70 Z30 F9000 ; Move to wait position off table,G130 X20 Y20 Z20 A20 B20 ; Lower stepper Vrefs while heating,M126 S[fan_speed_pwm] ; Set fan speed,M140 S[bed0_temperature] T0 ; Heat buildplate ,M134 T0 ; Stabilize bed temperature,M104 S[extruder0_temperature] T0 ; Heat right extruder,M104 S[extruder1_temperature] T1 ; Heat left extruder,M133 T0 ; Stabilize right extruder temperature,M133 T1 ; Stabilize left extruder temperature,G130 X127 Y127 Z40 A127 B127 ; Default stepper Vrefs,G92 A0 B0 ; Zero extruders,G1 X100 Y-77 F9000 ; Move to front right corner of bed,G1 Z0.3 F6000 ; Move down to purge,G1 X-90 Y-77 E24 F2000 ; Extrude a line of filament across the front edge of the bed,G1 X-100 Y-77 F180 ; Wait for ooze,G1 X-110 Y-77 F5000 ; Fast wipe,G1 Z0.5 F100 ; Lift,G92 A0 B0 ; Zero extruders,M135 T1 ; Load left extruder offsets,G1 X-100 Y-78 F9000 ; Move to front left corner of bed,G1 Z0.3 F6000 ; Move down to purge,G1 X90 Y-78 E24 F2000 ; Extrude a line of filament across the front edge of the bed,G1 X100 Y-78 F180 ; Wait for ooze,G1 X110 Y-78 F5000 ; Fast wipe,G1 Z1 F100 ; Lift,G92 A0 B0 ; Zero extruders,M73 P1 ; @body (notify GPX body has started)
;   layerChangeGcode,
;   retractionGcode,
;   toolChangeGcode,
;   endingGcode,M73 P100 ; end build progress,G1 Z150 F1000 ; send Z axis to bottom of machine,M140 S0 T0 ; cool down HBP,M104 S0 T0 ; cool down right extruder,M104 S0 T1 ; cool down left extruder,M127 ; stop blower fan,G162 X Y F3000 ; home XY maximum,M18 ; disable stepper,M72 P1 ; play Ta-Da song
;   exportFileFormat,x3g
;   celebration,0
;   celebrationSong,Random Song
;   postProcessing,
;   defaultSpeed,3600
;   outlineUnderspeed,0.5
;   solidInfillUnderspeed,0.8
;   supportUnderspeed,0.8
;   rapidXYspeed,4200
;   rapidZspeed,1200
;   minBridgingArea,50
;   bridgingExtraInflation,0
;   bridgingExtrusionMultiplier,1
;   bridgingSpeedMultiplier,0.8
;   useFixedBridgingAngle,0
;   fixedBridgingAngle,0
;   applyBridgingToPerimeters,0
;   filamentDiameters,1.75|1.75|1.75|1.75|1.75|1.75
;   filamentPricesPerKg,46|46|46|46|46|46
;   filamentDensities,1.25|1.25|1.25|1.25|1.25|1.25
;   useMinPrintHeight,0
;   minPrintHeight,0
;   useMaxPrintHeight,0
;   maxPrintHeight,0
;   useDiaphragm,0
;   diaphragmLayerInterval,20
;   robustSlicing,1
;   mergeAllIntoSolid,0
;   onlyRetractWhenCrossingOutline,1
;   retractBetweenLayers,1
;   useRetractionMinTravel,0
;   retractionMinTravel,3
;   retractWhileWiping,0
;   onlyWipeOutlines,1
;   avoidCrossingOutline,0
;   maxMovementDetourFactor,3
;   toolChangeRetractionDistance,12
;   toolChangeExtraRestartDistance,-0.5
;   toolChangeRetractionSpeed,600
;   externalThinWallType,0
;   internalThinWallType,2
;   thinWallAllowedOverlapPercentage,10
;   singleExtrusionMinLength,1
;   singleExtrusionMinPrintingWidthPercentage,50
;   singleExtrusionMaxPrintingWidthPercentage,200
;   singleExtrusionEndpointExtension,0.2
;   horizontalSizeCompensation,0
G90
M83
M73 P0 ; Enable build progress
G162 X Y F3000 ; Home XY maximum
G161 Z F1200 ; Home Z minimum
G92 X0 Y0 Z-5 A0 B0 ; Set Z to -5
G1 Z0 ; Move Z to 0
G161 Z F100 ; Home Z slowly
M132 X Y Z A B ; Recall home offsets
M135 T0 ; Load right extruder offsets
G1 X-110 Y-70 Z30 F9000 ; Move to wait position off table
G130 X20 Y20 Z20 A20 B20 ; Lower stepper Vrefs while heating
M127 ; Set fan speed
M140 S55 T0 ; Heat buildplate 
M134 T0 ; Stabilize bed temperature
M104 S215 T0 ; Heat right extruder
M104 S215 T1 ; Heat left extruder
M133 T0 ; Stabilize right extruder temperature
M133 T1 ; Stabilize left extruder temperature
G130 X127 Y127 Z40 A127 B127 ; Default stepper Vrefs
G92 A0 B0 ; Zero extruders
G1 X100 Y-77 F9000 ; Move to front right corner of bed
G1 Z0.3 F6000 ; Move down to purge
G1 X-90 Y-77 E24 F2000 ; Extrude a line of filament across the front edge of the bed
G1 X-100 Y-77 F180 ; Wait for ooze
G1 X-110 Y-77 F5000 ; Fast wipe
G1 Z0.5 F100 ; Lift
G92 A0 B0 ; Zero extruders
M135 T1 ; Load left extruder offsets
G1 X-100 Y-78 F9000 ; Move to front left corner of bed
G1 Z0.3 F6000 ; Move down to purge
G1 X90 Y-78 E24 F2000 ; Extrude a line of filament across the front edge of the bed
G1 X100 Y-78 F180 ; Wait for ooze
G1 X110 Y-78 F5000 ; Fast wipe
G1 Z1 F100 ; Lift
G92 A0 B0 ; Zero extruders
M73 P1 ; @body (notify GPX body has started)
G1 E-1.0000 F1200
G1 Z0.180 F1200
; process Process1
; layer 1, Z = 0.180
M135 T1
; tool H0.200 W0.400
; inner perimeter
G1 X53.382 Y-47.290 F4200
G1 E1.0000 F360
G1 X-68.108 Y-47.307 E3.6367 F1350
G1 X-70.218 Y-46.787 E0.0650
G1 X-71.915 Y-45.284 E0.0679
G1 X-72.714 Y-42.720 E0.0804
G1 X-72.729 Y65.863 E3.2503
G1 X-81.984 Y65.861 E0.2770
G1 X-81.966 Y-68.635 E4.0260
G1 X80.227 Y-68.614 E4.8551
G1 X80.209 Y65.883 E4.0260
G1 X57.954 Y65.880 E0.6662
G1 X57.969 Y-42.684 E3.2498
G1 X57.449 Y-44.794 E0.0650
G1 X55.946 Y-46.491 E0.0679
G1 X53.382 Y-47.290 E0.0804
; outer perimeter
G1 X53.322 Y-46.890 F4200
G1 X-68.060 Y-46.907 E3.6334 F900
G1 X-70.026 Y-46.423 E0.0606
G1 X-71.566 Y-45.059 E0.0616
G1 X-72.314 Y-42.660 E0.0752
G1 X-72.329 Y66.263 E3.2605
G1 X-82.384 Y66.261 E0.3010
G1 X-82.366 Y-69.036 E4.0500
G1 X80.628 Y-69.014 E4.8791
G1 X80.609 Y66.283 E4.0500
G1 X57.554 Y66.280 E0.6901
G1 X57.569 Y-42.636 E3.2603
G1 X57.084 Y-44.603 E0.0606
G1 X55.720 Y-46.143 E0.0616
G1 X53.322 Y-46.890 E0.0752
; inner perimeter
G1 X44.409 Y-54.370 F4200
G1 X44.653 Y-54.665 E0.0115 F1350
G1 X44.823 Y-55.029 E0.0120
G1 X44.894 Y-55.402 E0.0113
G1 X44.895 Y-65.645 E0.3066
G1 X44.822 Y-66.022 E0.0115
G1 X44.650 Y-66.385 E0.0120
G1 X44.408 Y-66.677 E0.0114
G1 X44.224 Y-66.829 E0.0071
G1 X43.888 Y-67.014 E0.0115
G1 X43.498 Y-67.114 E0.0120
G1 X37.260 Y-67.123 E0.1867
G1 X36.917 Y-67.080 E0.0104
G1 X36.689 Y-67.005 E0.0072
G1 X36.353 Y-66.820 E0.0115
G1 X36.058 Y-66.542 E0.0121
G1 X35.854 Y-66.219 E0.0114
G1 X35.767 Y-66.000 E0.0071
G1 X35.699 Y-65.643 E0.0109
G1 X35.698 Y-55.399 E0.3066
G1 X35.771 Y-55.023 E0.0115
G1 X35.943 Y-54.659 E0.0120
G1 X36.197 Y-54.352 E0.0119
G1 X36.522 Y-54.117 E0.0120
G1 X36.896 Y-53.968 E0.0121
G1 X37.258 Y-53.923 E0.0109
G1 X43.333 Y-53.922 E0.1818
G1 X43.676 Y-53.964 E0.0103
G1 X43.904 Y-54.039 E0.0072
G1 X44.223 Y-54.215 E0.0109
G1 X44.409 Y-54.370 E0.0072
; outer perimeter
G1 X44.124 Y-54.653 F4200
G1 X44.312 Y-54.880 E0.0088 F900
G1 X44.439 Y-55.153 E0.0090
G1 X44.494 Y-55.440 E0.0087
G1 X44.495 Y-65.607 E0.3043
G1 X44.439 Y-65.896 E0.0088
G1 X44.310 Y-66.168 E0.0090
G1 X44.124 Y-66.393 E0.0087
G1 X43.998 Y-66.497 E0.0049
G1 X43.739 Y-66.639 E0.0088
G1 X43.448 Y-66.714 E0.0090
G1 X37.285 Y-66.723 E0.1845
G1 X37.005 Y-66.688 E0.0085
G1 X36.849 Y-66.637 E0.0049
G1 X36.591 Y-66.494 E0.0088
G1 X36.369 Y-66.285 E0.0091
G1 X36.212 Y-66.037 E0.0088
G1 X36.153 Y-65.888 E0.0048
G1 X36.099 Y-65.605 E0.0086
G1 X36.098 Y-55.438 E0.3043
G1 X36.154 Y-55.148 E0.0088
G1 X36.283 Y-54.876 E0.0090
G1 X36.473 Y-54.647 E0.0089
G1 X36.717 Y-54.470 E0.0090
G1 X36.997 Y-54.358 E0.0090
G1 X37.283 Y-54.323 E0.0086
G1 X43.308 Y-54.322 E0.1803
G1 X43.588 Y-54.357 E0.0084
G1 X43.744 Y-54.407 E0.0049
G1 X43.997 Y-54.547 E0.0086
G1 X44.124 Y-54.653 E0.0050
G1 E-1.0000 F1200
; inner perimeter
G1 X21.060 Y-55.405 F4200
G1 E1.0000 F1200
G1 X21.061 Y-65.648 E0.3066 F1350
G1 X20.988 Y-66.025 E0.0115
G1 X20.817 Y-66.388 E0.0120
G1 X20.574 Y-66.680 E0.0114
G1 X20.390 Y-66.833 E0.0072
G1 X20.051 Y-67.018 E0.0116
G1 X19.665 Y-67.117 E0.0119
G1 X13.426 Y-67.126 E0.1867
G1 X13.080 Y-67.082 E0.0104
G1 X12.856 Y-67.009 E0.0071
G1 X12.520 Y-66.823 E0.0115
G1 X12.225 Y-66.545 E0.0121
G1 X12.021 Y-66.222 E0.0114
G1 X11.934 Y-66.003 E0.0071
G1 X11.866 Y-65.646 E0.0109
G1 X11.865 Y-55.402 E0.3066
G1 X11.938 Y-55.026 E0.0115
G1 X12.110 Y-54.663 E0.0120
G1 X12.364 Y-54.356 E0.0119
G1 X12.689 Y-54.120 E0.0120
G1 X13.063 Y-53.971 E0.0121
G1 X13.425 Y-53.926 E0.0109
G1 X19.499 Y-53.925 E0.1818
G1 X19.842 Y-53.968 E0.0103
G1 X20.070 Y-54.042 E0.0072
G1 X20.390 Y-54.218 E0.0109
G1 X20.576 Y-54.373 E0.0073
G1 X20.820 Y-54.669 E0.0115
G1 X20.989 Y-55.033 E0.0120
G1 X21.060 Y-55.405 E0.0113
; outer perimeter
G1 X20.660 Y-55.443 F4200
G1 X20.661 Y-65.610 E0.3043 F900
G1 X20.605 Y-65.899 E0.0088
G1 X20.476 Y-66.171 E0.0090
G1 X20.290 Y-66.396 E0.0087
G1 X20.164 Y-66.500 E0.0049
G1 X19.903 Y-66.643 E0.0089
G1 X19.614 Y-66.717 E0.0089
G1 X13.451 Y-66.726 E0.1845
G1 X13.168 Y-66.690 E0.0085
G1 X13.016 Y-66.640 E0.0048
G1 X12.757 Y-66.498 E0.0088
G1 X12.536 Y-66.289 E0.0091
G1 X12.379 Y-66.040 E0.0088
G1 X12.320 Y-65.891 E0.0048
G1 X12.266 Y-65.608 E0.0086
G1 X12.265 Y-55.441 E0.3043
G1 X12.321 Y-55.151 E0.0088
G1 X12.450 Y-54.879 E0.0090
G1 X12.640 Y-54.650 E0.0089
G1 X12.883 Y-54.473 E0.0090
G1 X13.163 Y-54.361 E0.0090
G1 X13.450 Y-54.326 E0.0086
G1 X19.475 Y-54.325 E0.1803
G1 X19.755 Y-54.360 E0.0084
G1 X19.910 Y-54.411 E0.0049
G1 X20.163 Y-54.550 E0.0086
G1 X20.291 Y-54.656 E0.0050
G1 X20.479 Y-54.884 E0.0088
G1 X20.606 Y-55.157 E0.0090
G1 X20.660 Y-55.443 E0.0087
G1 E-1.0000 F1200
; inner perimeter
G1 X-2.773 Y-55.408 F4200
G1 E1.0000 F1200
G1 X-2.772 Y-65.651 E0.3066 F1350
G1 X-2.845 Y-66.028 E0.0115
G1 X-3.017 Y-66.391 E0.0120
G1 X-3.259 Y-66.683 E0.0114
G1 X-3.443 Y-66.835 E0.0071
G1 X-3.779 Y-67.020 E0.0115
G1 X-4.168 Y-67.120 E0.0120
G1 X-10.406 Y-67.129 E0.1867
G1 X-10.750 Y-67.086 E0.0104
G1 X-10.978 Y-67.012 E0.0072
G1 X-11.314 Y-66.827 E0.0115
G1 X-11.608 Y-66.548 E0.0121
G1 X-11.813 Y-66.226 E0.0114
G1 X-11.899 Y-66.006 E0.0071
G1 X-11.968 Y-65.649 E0.0109
G1 X-11.969 Y-55.406 E0.3066
G1 X-11.896 Y-55.029 E0.0115
G1 X-11.724 Y-54.666 E0.0120
G1 X-11.469 Y-54.359 E0.0119
G1 X-11.145 Y-54.123 E0.0120
G1 X-10.771 Y-53.974 E0.0121
G1 X-10.408 Y-53.929 E0.0109
G1 X-4.334 Y-53.928 E0.1818
G1 X-3.991 Y-53.971 E0.0103
G1 X-3.763 Y-54.045 E0.0072
G1 X-3.444 Y-54.221 E0.0109
G1 X-3.257 Y-54.376 E0.0073
G1 X-3.014 Y-54.672 E0.0115
G1 X-2.844 Y-55.036 E0.0120
G1 X-2.773 Y-55.408 E0.0114
; outer perimeter
G1 X-3.173 Y-55.446 F4200
G1 X-3.172 Y-65.613 E0.3043 F900
G1 X-3.228 Y-65.902 E0.0088
G1 X-3.357 Y-66.175 E0.0090
G1 X-3.543 Y-66.399 E0.0087
G1 X-3.669 Y-66.503 E0.0049
G1 X-3.927 Y-66.646 E0.0088
G1 X-4.219 Y-66.720 E0.0090
G1 X-10.382 Y-66.729 E0.1845
G1 X-10.662 Y-66.694 E0.0085
G1 X-10.818 Y-66.643 E0.0049
G1 X-11.076 Y-66.501 E0.0088
G1 X-11.297 Y-66.292 E0.0091
G1 X-11.455 Y-66.043 E0.0088
G1 X-11.514 Y-65.894 E0.0048
G1 X-11.568 Y-65.611 E0.0086
G1 X-11.569 Y-55.444 E0.3043
G1 X-11.513 Y-55.155 E0.0088
G1 X-11.384 Y-54.882 E0.0090
G1 X-11.193 Y-54.653 E0.0089
G1 X-10.950 Y-54.476 E0.0090
G1 X-10.670 Y-54.365 E0.0090
G1 X-10.384 Y-54.329 E0.0086
G1 X-4.359 Y-54.328 E0.1803
G1 X-4.079 Y-54.363 E0.0084
G1 X-3.923 Y-54.414 E0.0049
G1 X-3.670 Y-54.553 E0.0086
G1 X-3.542 Y-54.659 E0.0050
G1 X-3.355 Y-54.887 E0.0088
G1 X-3.227 Y-55.160 E0.0090
G1 X-3.173 Y-55.446 E0.0087
G1 E-1.0000 F1200
; inner perimeter
G1 X-26.606 Y-55.411 F4200
G1 E1.0000 F1200
G1 X-26.605 Y-65.655 E0.3066 F1350
G1 X-26.678 Y-66.031 E0.0115
G1 X-26.850 Y-66.394 E0.0120
G1 X-27.092 Y-66.687 E0.0114
G1 X-27.276 Y-66.839 E0.0071
G1 X-27.612 Y-67.024 E0.0115
G1 X-28.002 Y-67.123 E0.0120
G1 X-34.240 Y-67.132 E0.1867
G1 X-34.583 Y-67.089 E0.0104
G1 X-34.811 Y-67.015 E0.0072
G1 X-35.147 Y-66.830 E0.0115
G1 X-35.442 Y-66.551 E0.0121
G1 X-35.646 Y-66.229 E0.0114
G1 X-35.733 Y-66.009 E0.0071
G1 X-35.801 Y-65.652 E0.0109
G1 X-35.802 Y-55.409 E0.3066
G1 X-35.729 Y-55.032 E0.0115
G1 X-35.557 Y-54.669 E0.0120
G1 X-35.303 Y-54.362 E0.0119
G1 X-34.978 Y-54.127 E0.0120
G1 X-34.604 Y-53.977 E0.0121
G1 X-34.242 Y-53.932 E0.0109
G1 X-28.167 Y-53.931 E0.1818
G1 X-27.824 Y-53.974 E0.0103
G1 X-27.596 Y-54.048 E0.0072
G1 X-27.277 Y-54.224 E0.0109
G1 X-27.091 Y-54.379 E0.0073
G1 X-26.847 Y-54.675 E0.0115
G1 X-26.677 Y-55.039 E0.0120
